;FLAVOR:Marlin
;TIME:3053
;Filament used: 3.30105m
;Layer height: 0.2
;MINX:96.608
;MINY:119.598
;MINZ:0.2
;MAXX:159.374
;MAXY:182.365
;MAXZ:25
;Generated with Cura_SteamEngine main
M140 S60
M105
M190 S60
M104 S200
M105
M109 S200
M82 ;absolute extrusion mode
G21 ;metric values
G90 ;absolute positioning
M82 ;set extruder to absolute mode
M107 ;start with the fan off
G28 X0 Y0 ;move X/Y to min endstops
G28 Z0 ;move Z to min endstops
G1 Z15.0 F100 ;move the platform down 15mm
G92 E0 ;zero the extruded length
G1 F200 E3 ;extrude 3mm of feed stock
G92 E0 ;zero the extruded length again
G1 F100
G0 Y20 F100
M117 Printing...
G5
G92 E0
G92 E0
G1 F2400 E-6
;LAYER_COUNT:125
;LAYER:0
M107
M204 S3000
M205 X10 Y10
G1 F600 Z0.275
G0 F3000 X107.525 Y127.191 Z0.275
G1 F600 Z0.2
G0 F3000 X100.286 Y136.238
M204 S1800
M205 X8 Y8
;TYPE:SKIRT
G1 F2400 E0
G1 X100.774 Y135.355 E0.04698
G1 X101.374 Y134.352 E0.1014
G1 X101.734 Y133.792 E0.1324
G1 X102.391 Y132.829 E0.18668
G1 X102.813 Y132.247 E0.22016
G1 X103.701 Y131.108 E0.28741
G1 X104.177 Y130.541 E0.32188
G1 X104.799 Y129.837 E0.36562
G1 X105.492 Y129.1 E0.41273
G1 X106.244 Y128.352 E0.46212
G1 X106.632 Y127.985 E0.48699
G1 X107.525 Y127.191 E0.54263
G1 X108.16 Y126.658 E0.58123
G1 X109.091 Y125.928 E0.63632
G1 X109.887 Y125.347 E0.68221
G1 X110.642 Y124.83 E0.72482
G1 X111.536 Y124.257 E0.77426
G1 X112.425 Y123.728 E0.82243
G1 X113.052 Y123.382 E0.85578
G1 X114.171 Y122.806 E0.91438
G1 X114.871 Y122.474 E0.95046
G1 X115.954 Y121.999 E1.00552
G1 X116.711 Y121.695 E1.04351
G1 X117.622 Y121.36 E1.08871
G1 X118.264 Y121.143 E1.12026
G1 X119.644 Y120.728 E1.18736
G1 X120.391 Y120.532 E1.22332
G1 X121.294 Y120.322 E1.26649
G1 X122.226 Y120.133 E1.31077
G1 X123.216 Y119.964 E1.35754
G1 X124.203 Y119.827 E1.40394
G1 X125.044 Y119.736 E1.44333
G1 X126.04 Y119.659 E1.48984
G1 X127.277 Y119.606 E1.5475
G1 X128.05 Y119.598 E1.58349
G1 X128.974 Y119.614 E1.62653
G1 X130.006 Y119.662 E1.67463
G1 X130.992 Y119.74 E1.72069
G1 X131.813 Y119.83 E1.75915
G1 X132.646 Y119.944 E1.79829
G1 X133.645 Y120.112 E1.84547
G1 X134.809 Y120.347 E1.90076
G1 X135.592 Y120.532 E1.93822
G1 X136.491 Y120.771 E1.98154
G1 X137.363 Y121.03 E2.0239
G1 X138.344 Y121.355 E2.07202
G1 X139.051 Y121.61 E2.10701
G1 X140.111 Y122.032 E2.16014
G1 X140.964 Y122.405 E2.20349
G1 X142.169 Y122.983 E2.26572
G1 X142.833 Y123.329 E2.30059
G1 X143.845 Y123.895 E2.35458
G1 X144.487 Y124.282 E2.38948
G1 X145.394 Y124.864 E2.43966
G1 X145.876 Y125.192 E2.46681
G1 X146.983 Y125.996 E2.53052
G1 X147.559 Y126.446 E2.56455
G1 X148.361 Y127.109 E2.61301
G1 X148.986 Y127.655 E2.65165
G1 X149.813 Y128.426 E2.7043
G1 X150.31 Y128.917 E2.73683
G1 X151.326 Y129.996 E2.80584
G1 X151.709 Y130.43 E2.83279
G1 X152.541 Y131.429 E2.89333
G1 X152.873 Y131.854 E2.91844
G1 X153.616 Y132.865 E2.97687
G1 X154.118 Y133.595 E3.01812
G1 X154.707 Y134.515 E3.06899
G1 X155.189 Y135.323 E3.1128
G1 X155.735 Y136.311 E3.16536
G1 X156.106 Y137.037 E3.20332
G1 X156.516 Y137.895 E3.2476
G1 X156.903 Y138.774 E3.29232
G1 X157.308 Y139.776 E3.34265
G1 X157.582 Y140.522 E3.37965
G1 X157.895 Y141.455 E3.42548
G1 X158.065 Y142.006 E3.45233
G1 X158.543 Y143.78 E3.53788
G1 X158.85 Y145.268 E3.60863
G1 X159.002 Y146.161 E3.65081
G1 X159.163 Y147.338 E3.70612
G1 X159.226 Y147.926 E3.73366
G1 X159.315 Y149.061 E3.78667
G1 X159.354 Y149.837 E3.82285
G1 X159.374 Y151.196 E3.88614
G1 X159.358 Y152.041 E3.92549
G1 X159.31 Y153.02 E3.97113
G1 X159.246 Y153.838 E4.00934
G1 X159.157 Y154.682 E4.04886
G1 X159.05 Y155.49 E4.08681
G1 X158.829 Y156.816 E4.1494
G1 X158.673 Y157.584 E4.1859
G1 X158.425 Y158.641 E4.23645
G1 X158.246 Y159.323 E4.26928
G1 X157.889 Y160.521 E4.32749
G1 X157.563 Y161.49 E4.3751
G1 X157.216 Y162.423 E4.42145
G1 X156.909 Y163.179 E4.45944
G1 X156.556 Y163.982 E4.50029
G1 X156.222 Y164.692 E4.53682
G1 X155.607 Y165.893 E4.59965
G1 X155.317 Y166.419 E4.62762
G1 X154.715 Y167.438 E4.68273
G1 X154.25 Y168.167 E4.723
G1 X153.512 Y169.246 E4.78387
G1 X153.186 Y169.694 E4.80967
G1 X152.281 Y170.855 E4.87821
G1 X151.806 Y171.421 E4.91262
G1 X151.185 Y172.124 E4.95629
G1 X150.49 Y172.863 E5.00353
G1 X149.862 Y173.49 E5.04485
G1 X149.186 Y174.128 E5.08814
G1 X148.321 Y174.89 E5.14181
G1 X147.871 Y175.265 E5.16909
G1 X146.851 Y176.064 E5.22942
G1 X146.086 Y176.623 E5.27354
G1 X145.286 Y177.169 E5.31864
G1 X144.608 Y177.606 E5.3562
G1 X143.726 Y178.137 E5.40414
G1 X143.103 Y178.488 E5.43744
G1 X141.983 Y179.071 E5.49623
G1 X141.301 Y179.402 E5.53153
G1 X140.205 Y179.89 E5.5874
G1 X139.468 Y180.192 E5.62448
G1 X138.431 Y180.578 E5.67601
G1 X137.533 Y180.879 E5.72011
G1 X136.334 Y181.236 E5.77836
G1 X135.601 Y181.428 E5.81364
G1 X134.5 Y181.683 E5.86627
G1 X133.757 Y181.83 E5.90154
G1 X132.767 Y181.999 E5.9483
G1 X131.781 Y182.136 E5.99465
G1 X130.942 Y182.227 E6.03395
G1 X129.94 Y182.304 E6.08075
G1 X128.7 Y182.357 E6.13854
G1 X127.932 Y182.365 E6.1743
G1 X127.008 Y182.349 E6.21733
G1 X125.976 Y182.301 E6.26544
G1 X124.99 Y182.223 E6.31149
G1 X124.169 Y182.133 E6.34995
G1 X123.336 Y182.019 E6.3891
G1 X122.337 Y181.851 E6.43627
G1 X121.173 Y181.616 E6.49157
G1 X120.39 Y181.431 E6.52903
G1 X119.313 Y181.142 E6.58095
G1 X118.619 Y180.933 E6.6147
G1 X117.64 Y180.609 E6.66272
G1 X116.74 Y180.28 E6.70734
G1 X115.691 Y179.856 E6.76003
G1 X115.016 Y179.557 E6.7944
G1 X113.813 Y178.98 E6.85653
G1 X113.149 Y178.634 E6.89139
G1 X112.137 Y178.068 E6.94539
G1 X111.495 Y177.681 E6.98029
G1 X110.746 Y177.203 E7.02167
G1 X109.925 Y176.644 E7.06792
G1 X109.008 Y175.974 E7.1208
G1 X108.451 Y175.539 E7.15371
G1 X107.428 Y174.69 E7.21561
G1 X106.948 Y174.265 E7.24546
G1 X106.189 Y173.557 E7.29379
G1 X105.671 Y173.045 E7.32771
G1 X104.794 Y172.118 E7.38713
G1 X104.14 Y171.378 E7.43311
G1 X103.567 Y170.69 E7.47481
G1 X103.102 Y170.099 E7.50982
G1 X102.35 Y169.075 E7.56898
G1 X101.862 Y168.365 E7.6091
G1 X101.168 Y167.274 E7.66931
G1 X100.793 Y166.64 E7.70361
G1 X100.247 Y165.652 E7.75617
G1 X99.876 Y164.926 E7.79413
G1 X99.466 Y164.068 E7.83841
G1 X99.138 Y163.328 E7.8761
G1 X98.746 Y162.37 E7.9243
G1 X98.389 Y161.41 E7.97199
G1 X98.102 Y160.553 E8.01408
G1 X97.853 Y159.732 E8.05403
G1 X97.437 Y158.174 E8.12911
G1 X97.132 Y156.695 E8.19943
G1 X96.98 Y155.802 E8.24161
G1 X96.844 Y154.828 E8.28741
G1 X96.755 Y154.02 E8.32526
G1 X96.667 Y152.902 E8.37748
G1 X96.622 Y151.918 E8.42334
G1 X96.608 Y150.767 E8.47694
G1 X96.624 Y149.922 E8.5163
G1 X96.672 Y148.943 E8.56194
G1 X96.736 Y148.125 E8.60014
G1 X96.825 Y147.281 E8.63966
G1 X96.964 Y146.26 E8.68764
G1 X97.154 Y145.142 E8.74045
G1 X97.264 Y144.589 E8.7667
G1 X97.557 Y143.324 E8.82717
G1 X97.741 Y142.622 E8.86096
G1 X98.094 Y141.438 E8.91849
G1 X98.419 Y140.473 E8.9659
G1 X98.766 Y139.54 E9.01225
G1 X99.073 Y138.784 E9.05025
G1 X99.426 Y137.981 E9.09109
G1 X99.768 Y137.254 E9.1285
G1 X100.286 Y136.238 E9.18161
M204 S3000
M205 X10 Y10
G1 F2400 E3.18161
G0 F3000 X97.789 Y149.027
M204 S1800
M205 X8 Y8
G1 F2400 E9.18161
G1 X97.85 Y148.242 E9.21827
G1 X97.939 Y147.398 E9.25779
G1 X98.068 Y146.445 E9.30257
G1 X98.223 Y145.519 E9.34629
G1 X98.362 Y144.808 E9.38002
G1 X98.647 Y143.579 E9.43877
G1 X98.869 Y142.747 E9.47886
G1 X99.166 Y141.761 E9.52681
G1 X99.469 Y140.861 E9.57103
G1 X99.749 Y140.102 E9.6087
G1 X100.098 Y139.235 E9.65222
G1 X100.451 Y138.432 E9.69307
G1 X100.853 Y137.585 E9.73672
G1 X101.282 Y136.749 E9.78048
G1 X101.651 Y136.075 E9.81626
G1 X102.23 Y135.096 E9.86922
G1 X102.659 Y134.423 E9.90638
G1 X103.316 Y133.46 E9.96067
G1 X103.717 Y132.908 E9.99243
G1 X104.452 Y131.961 E10.04825
G1 X105.016 Y131.283 E10.08932
G1 X105.638 Y130.579 E10.13306
G1 X106.283 Y129.893 E10.17691
G1 X107.014 Y129.166 E10.22491
G1 X107.532 Y128.68 E10.25799
G1 X108.383 Y127.93 E10.31081
G1 X108.877 Y127.518 E10.34076
G1 X109.92 Y126.705 E10.40234
G1 X110.397 Y126.358 E10.4298
G1 X111.404 Y125.669 E10.48662
G1 X112.111 Y125.218 E10.52567
G1 X112.971 Y124.706 E10.57227
G1 X113.567 Y124.376 E10.604
G1 X114.516 Y123.885 E10.65375
G1 X115.322 Y123.499 E10.69536
G1 X116.234 Y123.097 E10.74177
G1 X117.098 Y122.746 E10.7852
G1 X118.009 Y122.411 E10.83039
G1 X118.773 Y122.156 E10.8679
G1 X119.775 Y121.855 E10.91661
G1 X120.645 Y121.623 E10.95854
G1 X121.689 Y121.382 E11.00843
G1 X122.248 Y121.268 E11.035
G1 X123.405 Y121.068 E11.08967
G1 X124.165 Y120.96 E11.12542
G1 X125.318 Y120.835 E11.17942
G1 X126.091 Y120.777 E11.21551
G1 X127.127 Y120.73 E11.2638
G1 X128.03 Y120.718 E11.30586
G1 X128.954 Y120.734 E11.34889
G1 X129.921 Y120.778 E11.39396
G1 X130.718 Y120.839 E11.43118
G1 X131.661 Y120.94 E11.47534
G1 X132.649 Y121.077 E11.52179
G1 X133.265 Y121.18 E11.55087
G1 X134.556 Y121.438 E11.61217
G1 X135.305 Y121.614 E11.648
G1 X136.347 Y121.893 E11.69823
G1 X136.85 Y122.042 E11.72266
G1 X138.141 Y122.47 E11.78599
G1 X138.825 Y122.722 E11.81993
G1 X139.694 Y123.071 E11.86354
G1 X140.326 Y123.345 E11.89561
G1 X141.655 Y123.978 E11.96416
G1 X142.289 Y124.308 E11.99744
G1 X143.27 Y124.856 E12.04976
G1 X143.752 Y125.144 E12.07591
G1 X144.633 Y125.704 E12.12452
G1 X145.378 Y126.211 E12.16648
G1 X146.167 Y126.784 E12.21188
G1 X146.714 Y127.205 E12.24402
G1 X147.771 Y128.078 E12.30786
G1 X148.368 Y128.607 E12.345
G1 X149.048 Y129.244 E12.38839
G1 X149.636 Y129.83 E12.42704
G1 X150.372 Y130.612 E12.47705
G1 X150.869 Y131.171 E12.51188
G1 X151.658 Y132.119 E12.56931
G1 X152.091 Y132.677 E12.6022
G1 X152.712 Y133.526 E12.65118
G1 X153.175 Y134.199 E12.68921
G1 X153.764 Y135.119 E12.74008
G1 X154.131 Y135.73 E12.77327
G1 X154.66 Y136.676 E12.82374
G1 X155.095 Y137.519 E12.86791
G1 X155.505 Y138.377 E12.91219
G1 X155.866 Y139.196 E12.95386
G1 X156.2 Y140.017 E12.99514
G1 X156.521 Y140.88 E13.03801
G1 X156.782 Y141.653 E13.076
G1 X157.048 Y142.522 E13.11832
G1 X157.354 Y143.66 E13.17319
G1 X157.504 Y144.287 E13.20321
G1 X157.785 Y145.669 E13.26888
G1 X157.892 Y146.316 E13.29942
G1 X158.049 Y147.458 E13.35309
G1 X158.127 Y148.205 E13.38806
G1 X158.199 Y149.146 E13.43201
G1 X158.24 Y150.056 E13.47443
G1 X158.254 Y151.179 E13.52672
G1 X158.239 Y151.989 E13.56444
G1 X158.193 Y152.936 E13.60859
G1 X158.132 Y153.721 E13.64526
G1 X158.025 Y154.718 E13.69195
G1 X157.916 Y155.504 E13.7289
G1 X157.759 Y156.443 E13.77323
G1 X157.582 Y157.328 E13.81525
G1 X157.296 Y158.539 E13.87319
G1 X157.119 Y159.194 E13.90479
G1 X156.817 Y160.199 E13.95365
G1 X156.513 Y161.102 E13.99802
G1 X156.233 Y161.861 E14.03569
G1 X155.884 Y162.728 E14.07921
G1 X155.468 Y163.669 E14.12711
G1 X155.21 Y164.213 E14.15515
G1 X154.626 Y165.352 E14.21475
G1 X154.336 Y165.878 E14.24272
G1 X153.664 Y167.009 E14.30398
G1 X153.325 Y167.537 E14.3332
G1 X152.701 Y168.453 E14.38481
G1 X152.28 Y169.035 E14.41825
G1 X151.53 Y170.002 E14.47524
G1 X150.966 Y170.68 E14.5163
G1 X150.236 Y171.503 E14.56753
G1 X149.816 Y171.95 E14.59609
G1 X149.071 Y172.697 E14.64521
G1 X148.575 Y173.169 E14.6771
G1 X147.723 Y173.927 E14.7302
G1 X147.154 Y174.404 E14.76477
G1 X146.028 Y175.283 E14.83129
G1 X145.591 Y175.602 E14.85648
G1 X144.523 Y176.331 E14.91669
G1 X144.004 Y176.663 E14.94538
G1 X143.008 Y177.259 E14.99943
G1 X142.418 Y177.585 E15.03081
G1 X141.468 Y178.077 E15.08063
G1 X140.664 Y178.462 E15.12214
G1 X139.602 Y178.929 E15.17616
G1 X139.047 Y179.154 E15.20405
G1 X138.043 Y179.527 E15.25392
G1 X137.368 Y179.756 E15.28711
G1 X136.046 Y180.154 E15.3514
G1 X135.346 Y180.338 E15.3851
G1 X134.442 Y180.55 E15.42833
G1 X133.568 Y180.726 E15.46985
G1 X132.578 Y180.895 E15.51661
G1 X131.816 Y181.003 E15.55245
G1 X130.664 Y181.128 E15.60641
G1 X129.89 Y181.186 E15.64255
G1 X128.848 Y181.233 E15.69112
G1 X127.952 Y181.245 E15.73284
G1 X127.028 Y181.229 E15.77587
G1 X126.061 Y181.185 E15.82095
G1 X125.264 Y181.124 E15.85817
G1 X124.321 Y181.023 E15.90233
G1 X123.333 Y180.886 E15.94878
G1 X122.717 Y180.783 E15.97786
G1 X121.426 Y180.525 E16.03916
G1 X120.677 Y180.349 E16.07499
G1 X119.778 Y180.11 E16.1183
G1 X118.971 Y179.87 E16.15751
G1 X117.992 Y179.546 E16.20552
G1 X117.157 Y179.241 E16.24692
G1 X116.288 Y178.892 E16.29052
G1 X115.653 Y178.617 E16.32275
G1 X114.478 Y178.06 E16.38329
G1 X113.693 Y177.655 E16.42443
G1 X112.712 Y177.107 E16.47675
G1 X112.23 Y176.819 E16.50289
G1 X111.349 Y176.259 E16.5515
G1 X110.72 Y175.834 E16.58685
G1 X109.693 Y175.088 E16.64596
G1 X109.296 Y174.781 E16.66933
G1 X108.309 Y173.969 E16.72884
G1 X107.582 Y173.327 E16.774
G1 X106.834 Y172.624 E16.8218
G1 X106.461 Y172.252 E16.84633
G1 X105.61 Y171.351 E16.90404
G1 X105.001 Y170.661 E16.94689
G1 X104.323 Y169.843 E16.99636
G1 X103.985 Y169.41 E17.02194
G1 X103.167 Y168.292 E17.08645
G1 X102.805 Y167.762 E17.11633
G1 X102.217 Y166.843 E17.16714
G1 X101.851 Y166.233 E17.20026
G1 X101.322 Y165.287 E17.25073
G1 X100.887 Y164.444 E17.2949
G1 X100.477 Y163.586 E17.33918
G1 X100.11 Y162.75 E17.38169
G1 X99.724 Y161.797 E17.42957
G1 X99.451 Y161.055 E17.46639
G1 X99.164 Y160.198 E17.50847
G1 X98.934 Y159.441 E17.54531
G1 X98.628 Y158.304 E17.60014
G1 X98.478 Y157.676 E17.6302
G1 X98.196 Y156.292 E17.69597
G1 X98.112 Y155.793 E17.71953
G1 X97.954 Y154.673 E17.7722
G1 X97.854 Y153.745 E17.81566
G1 X97.783 Y152.817 E17.859
G1 X97.742 Y151.901 E17.9017
G1 X97.728 Y150.784 E17.95371
G1 X97.743 Y149.974 E17.99144
G1 X97.789 Y149.027 E18.03559
M204 S3000
M205 X10 Y10
G0 F3000 X97.168 Y150.776
M204 S1800
M205 X8 Y8
G1 F2400 X97.183 Y149.948 E18.07415
G1 X97.23 Y148.985 E18.11904
G1 X97.293 Y148.184 E18.15646
G1 X97.382 Y147.34 E18.19597
G1 X97.516 Y146.353 E18.24235
G1 X97.671 Y145.427 E18.28607
G1 X97.813 Y144.699 E18.32061
G1 X98.102 Y143.452 E18.38021
G1 X98.282 Y142.766 E18.41324
G1 X98.63 Y141.6 E18.4699
G1 X98.889 Y140.822 E18.50808
G1 X99.285 Y139.749 E18.56134
G1 X99.514 Y139.18 E18.5899
G1 X100.008 Y138.055 E18.64711
G1 X100.355 Y137.33 E18.68454
G1 X100.784 Y136.494 E18.72829
G1 X101.161 Y135.805 E18.76486
G1 X101.749 Y134.81 E18.81868
G1 X102.098 Y134.258 E18.84909
G1 X102.965 Y132.987 E18.92073
G1 X103.265 Y132.577 E18.94439
G1 X104.131 Y131.466 E19.00998
G1 X104.596 Y130.912 E19.04366
G1 X105.218 Y130.208 E19.0874
G1 X105.758 Y129.63 E19.12423
G1 X106.629 Y128.759 E19.18159
G1 X107.161 Y128.26 E19.21555
G1 X107.896 Y127.61 E19.26124
G1 X108.668 Y126.967 E19.30803
G1 X109.59 Y126.252 E19.36235
G1 X110.203 Y125.809 E19.39757
G1 X110.958 Y125.292 E19.44018
G1 X111.823 Y124.737 E19.48804
G1 X112.543 Y124.306 E19.52711
G1 X113.309 Y123.879 E19.56795
G1 X114.258 Y123.388 E19.6177
G1 X115.096 Y122.986 E19.66098
G1 X116.008 Y122.584 E19.70739
G1 X116.904 Y122.221 E19.7524
G1 X117.815 Y121.886 E19.7976
G1 X118.442 Y121.674 E19.82842
G1 X119.614 Y121.319 E19.88544
G1 X120.518 Y121.078 E19.92901
G1 X121.421 Y120.868 E19.97217
G1 X122.32 Y120.685 E20.01489
G1 X123.49 Y120.488 E20.07014
G1 X124.088 Y120.405 E20.09825
G1 X125.104 Y120.293 E20.14585
G1 X125.872 Y120.23 E20.18173
G1 X127.101 Y120.171 E20.23902
G1 X128.04 Y120.158 E20.28275
G1 X129.13 Y120.179 E20.33352
G1 X129.964 Y120.22 E20.3724
G1 X130.761 Y120.281 E20.40962
G1 X131.737 Y120.385 E20.45532
G1 X132.741 Y120.525 E20.50252
G1 X133.357 Y120.628 E20.53161
G1 X134.682 Y120.892 E20.59452
G1 X135.448 Y121.073 E20.63117
G1 X136.347 Y121.312 E20.67448
G1 X137.187 Y121.561 E20.71528
G1 X138.168 Y121.886 E20.7634
G1 X138.859 Y122.136 E20.79762
G1 X140.065 Y122.62 E20.85813
G1 X140.723 Y122.911 E20.89163
G1 X141.912 Y123.481 E20.95303
G1 X142.561 Y123.819 E20.9871
G1 X143.398 Y124.284 E21.03168
G1 X144.186 Y124.754 E21.07441
G1 X144.935 Y125.232 E21.11578
G1 X145.561 Y125.655 E21.15096
G1 X146.496 Y126.331 E21.20469
G1 X147.057 Y126.762 E21.23763
G1 X148.004 Y127.541 E21.29473
G1 X148.751 Y128.198 E21.34105
G1 X149.431 Y128.835 E21.38444
G1 X150.044 Y129.446 E21.42474
G1 X150.78 Y130.228 E21.47474
G1 X151.289 Y130.801 E21.51043
G1 X151.982 Y131.629 E21.56071
G1 X152.543 Y132.346 E21.6031
G1 X153.164 Y133.195 E21.65208
G1 X153.535 Y133.73 E21.68239
G1 X154.235 Y134.817 E21.7426
G1 X154.7 Y135.595 E21.7848
G1 X155.15 Y136.404 E21.82791
G1 X155.6 Y137.278 E21.87368
G1 X156.087 Y138.303 E21.92652
G1 X156.321 Y138.835 E21.95359
G1 X156.783 Y139.971 E22.01069
G1 X156.992 Y140.533 E22.03861
G1 X157.312 Y141.474 E22.08489
