;FLAVOR:Marlin
;TIME:1035
;Filament used: 0.960995m
;Layer height: 0.2
;MINX:80.259
;MINY:80.26
;MINZ:0.2
;MAXX:129.738
;MAXY:129.742
;MAXZ:24.4
;Generated with Cura_SteamEngine main
M140 S60
M105
M190 S60
M104 S200
M105
M109 S200
M82 ;absolute extrusion mode
G21 ;metric values
G90 ;absolute positioning
M82 ;set extruder to absolute mode
M107 ;start with the fan off
G28 X0 Y0 ;move X/Y to min endstops
G28 Z0 ;move Z to min endstops
G1 Z15.0 F100 ;move the platform down 15mm
G92 E0 ;zero the extruded length
G1 F200 E3 ;extrude 3mm of feed stock
G92 E0 ;zero the extruded length again
G1 F100
G0 Y20 F100
M117 Printing...
G5
G92 E0
G92 E0
G1 F2400 E-6
;LAYER_COUNT:122
;LAYER:0
M107
M204 S3000
M205 X10 Y10
G1 F600 Z0.275
G0 F3000 X91.603 Y91.83 Z0.275
G1 F600 Z0.2
G0 F3000 X86.472 Y101.857
M204 S1800
M205 X8 Y8
;TYPE:SKIRT
G1 F2400 E0
G1 X86.709 Y100.699 E0.05504
G1 X87.007 Y99.602 E0.10797
G1 X87.172 Y99.078 E0.13355
G1 X87.457 Y98.281 E0.17296
G1 X87.757 Y97.533 E0.21049
G1 X88.261 Y96.477 E0.26498
G1 X88.724 Y95.606 E0.31091
G1 X89.467 Y94.432 E0.3756
G1 X90.052 Y93.612 E0.42251
G1 X90.888 Y92.6 E0.48363
G1 X91.603 Y91.83 E0.53256
G1 X92.428 Y91.038 E0.58581
G1 X93.426 Y90.198 E0.64655
G1 X94.164 Y89.66 E0.68908
G1 X95.151 Y89.002 E0.74431
G1 X96.235 Y88.388 E0.80232
G1 X97.183 Y87.915 E0.85165
G1 X98.457 Y87.39 E0.91582
G1 X99.487 Y87.039 E0.96649
G1 X100.731 Y86.705 E1.02646
G1 X101.819 Y86.486 E1.07814
G1 X103.019 Y86.328 E1.1345
G1 X104.014 Y86.241 E1.18101
G1 X105.239 Y86.218 E1.23806
G1 X106.229 Y86.265 E1.28421
G1 X106.799 Y86.308 E1.31083
G1 X107.626 Y86.402 E1.34958
G1 X108.827 Y86.607 E1.40632
G1 X109.728 Y86.818 E1.44941
G1 X110.916 Y87.171 E1.50712
G1 X111.966 Y87.552 E1.55913
G1 X113.102 Y88.054 E1.61696
G1 X113.918 Y88.468 E1.65957
G1 X115.028 Y89.115 E1.71939
G1 X115.925 Y89.716 E1.76967
G1 X116.985 Y90.529 E1.83187
G1 X117.962 Y91.398 E1.89276
G1 X118.76 Y92.21 E1.94577
G1 X119.389 Y92.921 E1.98997
G1 X120.291 Y94.077 E2.05825
G1 X120.883 Y94.973 E2.10825
G1 X121.397 Y95.827 E2.15467
G1 X121.853 Y96.681 E2.19975
G1 X122.444 Y98.011 E2.26752
G1 X122.824 Y99.049 E2.31899
G1 X123.142 Y100.116 E2.37083
G1 X123.409 Y101.237 E2.42449
G1 X123.59 Y102.239 E2.4719
G1 X123.723 Y103.496 E2.53076
G1 X123.787 Y104.575 E2.58109
G1 X123.769 Y105.851 E2.64051
G1 X123.7 Y106.828 E2.68612
G1 X123.53 Y108.136 E2.74754
G1 X123.326 Y109.153 E2.79584
G1 X123.062 Y110.206 E2.84639
G1 X122.599 Y111.592 E2.91443
G1 X122.315 Y112.294 E2.94969
G1 X122.114 Y112.755 E2.97311
G1 X121.717 Y113.591 E3.0162
G1 X121.143 Y114.62 E3.07107
G1 X120.726 Y115.282 E3.1075
G1 X120.446 Y115.701 E3.13096
G1 X119.794 Y116.592 E3.18238
G1 X119.131 Y117.395 E3.23086
G1 X118.364 Y118.216 E3.28318
G1 X117.604 Y118.943 E3.33215
G1 X116.658 Y119.744 E3.38987
G1 X115.679 Y120.468 E3.44657
G1 X114.924 Y120.955 E3.48841
G1 X114.397 Y121.273 E3.51707
G1 X113.743 Y121.637 E3.55192
G1 X112.551 Y122.212 E3.61354
G1 X111.477 Y122.646 E3.66748
G1 X110.533 Y122.963 E3.71385
G1 X109.329 Y123.288 E3.77192
G1 X108.324 Y123.502 E3.81977
G1 X106.995 Y123.692 E3.88228
G1 X105.988 Y123.776 E3.92933
G1 X104.74 Y123.795 E3.98745
G1 X103.39 Y123.727 E4.05039
G1 X102.278 Y123.596 E4.10253
G1 X101.243 Y123.418 E4.15143
G1 X100.03 Y123.122 E4.20957
G1 X99.068 Y122.837 E4.25629
G1 X98.034 Y122.459 E4.30755
G1 X96.825 Y121.925 E4.3691
G1 X95.923 Y121.458 E4.41639
G1 X94.967 Y120.895 E4.46805
G1 X93.943 Y120.201 E4.52566
G1 X93.042 Y119.498 E4.57887
G1 X92.161 Y118.732 E4.63323
G1 X91.301 Y117.872 E4.68986
G1 X90.596 Y117.076 E4.73938
G1 X89.894 Y116.183 E4.79227
G1 X89.201 Y115.191 E4.84861
G1 X88.622 Y114.221 E4.90122
G1 X88.052 Y113.126 E4.9587
G1 X87.535 Y111.94 E5.01894
G1 X87.192 Y110.987 E5.0661
G1 X86.869 Y109.95 E5.11668
G1 X86.597 Y108.783 E5.17248
G1 X86.413 Y107.781 E5.21991
G1 X86.276 Y106.519 E5.27902
G1 X86.213 Y105.404 E5.33103
G1 X86.231 Y104.171 E5.38845
G1 X86.303 Y103.117 E5.43764
G1 X86.472 Y101.857 E5.49683
M204 S3000
M205 X10 Y10
G0 F3000 X87.336 Y105.193
M204 S1800
M205 X8 Y8
G1 F2400 X87.35 Y104.209 E5.54266
G1 X87.4 Y103.487 E5.57636
G1 X87.465 Y102.855 E5.60594
G1 X87.577 Y102.04 E5.64425
G1 X87.799 Y100.96 E5.69559
G1 X88.105 Y99.818 E5.75064
G1 X88.41 Y98.929 E5.79441
G1 X88.778 Y97.993 E5.84124
G1 X89.271 Y96.959 E5.89458
G1 X89.694 Y96.17 E5.93626
G1 X90.396 Y95.06 E5.99742
G1 X90.951 Y94.28 E6.04199
G1 X91.723 Y93.347 E6.09838
G1 X92.399 Y92.618 E6.14468
G1 X93.184 Y91.865 E6.19533
G1 X94.117 Y91.079 E6.25213
G1 X95.033 Y90.421 E6.30465
G1 X95.756 Y89.946 E6.34493
G1 X96.756 Y89.379 E6.39846
G1 X97.65 Y88.934 E6.44496
G1 X98.849 Y88.439 E6.50536
G1 X99.817 Y88.11 E6.55297
G1 X100.981 Y87.797 E6.60909
G1 X102.009 Y87.59 E6.65792
G1 X103.124 Y87.443 E6.71029
G1 X104.051 Y87.361 E6.75362
G1 X105.221 Y87.339 E6.80811
G1 X106.176 Y87.384 E6.85263
G1 X106.709 Y87.424 E6.87752
G1 X107.367 Y87.5 E6.90836
G1 X108.593 Y87.702 E6.96622
G1 X109.44 Y87.9 E7.00672
G1 X110.559 Y88.233 E7.06109
G1 X111.554 Y88.594 E7.11037
G1 X112.493 Y89.009 E7.15818
G1 X113.377 Y89.448 E7.20414
G1 X114.425 Y90.059 E7.26062
G1 X115.272 Y90.626 E7.30809
G1 X116.277 Y91.398 E7.3671
G1 X117.208 Y92.226 E7.42511
G1 X118.029 Y93.073 E7.48004
G1 X118.526 Y93.635 E7.51497
G1 X119.378 Y94.727 E7.57947
G1 X119.923 Y95.55 E7.62543
G1 X120.353 Y96.265 E7.66428
G1 X120.835 Y97.15 E7.71121
G1 X121.409 Y98.44 E7.77695
G1 X121.718 Y99.291 E7.81911
G1 X121.883 Y99.797 E7.84389
G1 X122.027 Y100.293 E7.86794
G1 X122.309 Y101.45 E7.92339
G1 X122.481 Y102.406 E7.96862
G1 X122.618 Y103.661 E8.02741
G1 X122.666 Y104.616 E8.07193
G1 X122.65 Y105.81 E8.12754
G1 X122.585 Y106.725 E8.17025
G1 X122.427 Y107.939 E8.22725
G1 X122.223 Y108.979 E8.2766
G1 X121.978 Y109.918 E8.32179
G1 X121.547 Y111.21 E8.38521
G1 X121.13 Y112.225 E8.43631
G1 X120.72 Y113.078 E8.48038
G1 X120.174 Y114.058 E8.53261
G1 X119.638 Y114.909 E8.57945
G1 X118.899 Y115.918 E8.63768
G1 X118.302 Y116.641 E8.68134
G1 X117.553 Y117.442 E8.73241
G1 X116.864 Y118.102 E8.77683
G1 X115.956 Y118.871 E8.83224
G1 X115.033 Y119.553 E8.88568
G1 X114.15 Y120.117 E8.93447
G1 X113.679 Y120.394 E8.95991
G1 X113.1 Y120.704 E8.99049
G1 X112.089 Y121.191 E9.04274
G1 X110.938 Y121.654 E9.10051
G1 X110.058 Y121.932 E9.14349
G1 X109.067 Y122.199 E9.19128
G1 X108.14 Y122.396 E9.23541
G1 X106.862 Y122.579 E9.29552
G1 X105.939 Y122.656 E9.33865
G1 X104.764 Y122.675 E9.39337
G1 X103.475 Y122.61 E9.45347
G1 X102.425 Y122.486 E9.5027
G1 X101.475 Y122.322 E9.54759
G1 X100.342 Y122.046 E9.60189
G1 X99.433 Y121.778 E9.64602
G1 X98.454 Y121.42 E9.69456
G1 X97.298 Y120.91 E9.75339
G1 X96.469 Y120.48 E9.79688
G1 X95.565 Y119.948 E9.84572
G1 X94.594 Y119.289 E9.90036
G1 X93.664 Y118.555 E9.95553
G1 X92.917 Y117.906 E10.00161
G1 X92.14 Y117.129 E10.05277
G1 X91.444 Y116.343 E10.10166
G1 X90.795 Y115.518 E10.15054
G1 X90.147 Y114.59 E10.20324
G1 X89.602 Y113.678 E10.25271
G1 X89.061 Y112.637 E10.30734
G1 X88.638 Y111.667 E10.35662
G1 X88.312 Y110.813 E10.39918
G1 X87.948 Y109.647 E10.45606
G1 X87.688 Y108.529 E10.50951
G1 X87.521 Y107.616 E10.55272
G1 X87.368 Y106.207 E10.61872
G1 X87.336 Y105.193 E10.66596
M204 S3000
M205 X10 Y10
G0 F3000 X86.773 Y105.37
M204 S1800
M205 X8 Y8
G1 F2400 X86.79 Y104.19 E10.72091
G1 X86.868 Y103.112 E10.77124
G1 X87.024 Y101.955 E10.8256
G1 X87.257 Y100.814 E10.87983
G1 X87.569 Y99.657 E10.93563
G1 X87.881 Y98.745 E10.98051
G1 X88.258 Y97.782 E11.02866
G1 X88.766 Y96.718 E11.08356
G1 X89.208 Y95.888 E11.12735
G1 X89.926 Y94.755 E11.18981
G1 X90.51 Y93.934 E11.23672
G1 X91.293 Y92.988 E11.29391
G1 X92.013 Y92.211 E11.34323
G1 X92.799 Y91.458 E11.39392
G1 X93.765 Y90.644 E11.45274
G1 X94.494 Y90.113 E11.49473
G1 X95.451 Y89.475 E11.54829
G1 X96.495 Y88.884 E11.60415
G1 X97.412 Y88.427 E11.65186
G1 X98.654 Y87.914 E11.71443
G1 X99.65 Y87.576 E11.76341
G1 X100.863 Y87.249 E11.82191
G1 X101.921 Y87.037 E11.87215
G1 X103.071 Y86.885 E11.92616
G1 X104.035 Y86.801 E11.97122
G1 X105.23 Y86.778 E12.02688
G1 X106.394 Y86.837 E12.08115
G1 X106.993 Y86.89 E12.10915
G1 X107.708 Y86.984 E12.14273
G1 X108.717 Y87.156 E12.19039
G1 X109.592 Y87.361 E12.23224
G1 X110.737 Y87.702 E12.28787
G1 X111.753 Y88.07 E12.33818
G1 X112.866 Y88.561 E12.39483
G1 X113.655 Y88.962 E12.43604
G1 X114.722 Y89.584 E12.49355
G1 X115.601 Y90.172 E12.54279
G1 X116.625 Y90.959 E12.60293
G1 X117.587 Y91.815 E12.66289
G1 X118.347 Y92.588 E12.71337
G1 X118.951 Y93.27 E12.75579
G1 X119.749 Y94.286 E12.81595
G1 X120.324 Y95.13 E12.8635
G1 X120.833 Y95.976 E12.90947
G1 X121.338 Y96.902 E12.95859
G1 X121.927 Y98.228 E13.02615
G1 X122.313 Y99.288 E13.07868
G1 X122.602 Y100.267 E13.12621
G1 X122.862 Y101.355 E13.1783
G1 X123.035 Y102.318 E13.22386
G1 X123.177 Y103.616 E13.28466
G1 X123.227 Y104.597 E13.3304
G1 X123.21 Y105.822 E13.38744
G1 X123.141 Y106.787 E13.43249
G1 X122.979 Y108.032 E13.49095
G1 X122.78 Y109.027 E13.5382
G1 X122.526 Y110.044 E13.58701
G1 X122.071 Y111.406 E13.65388
G1 X121.644 Y112.448 E13.70631
G1 X121.213 Y113.343 E13.75257
G1 X120.657 Y114.342 E13.80581
G1 X120.098 Y115.228 E13.85459
G1 X119.358 Y116.24 E13.91296
G1 X118.701 Y117.036 E13.96102
G1 X117.963 Y117.825 E14.01133
G1 X117.235 Y118.523 E14.05829
G1 X116.301 Y119.313 E14.11525
G1 X115.368 Y120.002 E14.16926
G1 X114.436 Y120.598 E14.22077
G1 X113.949 Y120.884 E14.24707
G1 X113.343 Y121.208 E14.27907
G1 X112.316 Y121.703 E14.33216
G1 X111.287 Y122.119 E14.38384
G1 X110.372 Y122.427 E14.42879
G1 X109.185 Y122.747 E14.48604
G1 X108.242 Y122.947 E14.53092
G1 X106.922 Y123.136 E14.59302
G1 X105.963 Y123.216 E14.63783
G1 X104.744 Y123.235 E14.69459
G1 X103.438 Y123.169 E14.75549
G1 X102.34 Y123.039 E14.80697
G1 X101.379 Y122.874 E14.85237
G1 X100.186 Y122.584 E14.90954
G1 X99.623 Y122.421 E14.93683
G1 X98.99 Y122.212 E14.96787
G1 X98.248 Y121.941 E15.00466
G1 X97.06 Y121.416 E15.06514
G1 X96.199 Y120.971 E15.11027
G1 X95.253 Y120.413 E15.16141
G1 X94.267 Y119.745 E15.21686
G1 X93.299 Y118.98 E15.27432
G1 X92.534 Y118.315 E15.32151
G1 X91.728 Y117.509 E15.37459
G1 X91.02 Y116.71 E15.4243
G1 X90.341 Y115.846 E15.47547
G1 X89.676 Y114.894 E15.52954
G1 X89.11 Y113.946 E15.58095
G1 X88.562 Y112.894 E15.63619
G1 X88.06 Y111.741 E15.69474
G1 X87.773 Y110.968 E15.73314
G1 X87.41 Y109.803 E15.78996
G1 X87.098 Y108.461 E15.85411
G1 X86.946 Y107.509 E15.899
G1 X86.854 Y106.686 E15.93757
G1 X86.813 Y106.186 E15.96093
G1 X86.773 Y105.37 E15.99897
M204 S3000
M205 X10 Y10
G1 F2400 E9.99897
G0 F3000 X92.741 Y105.005
M204 S1800
M205 X8 Y8
;TYPE:SUPPORT
G1 F2400 E15.99897
G1 F2100 X92.764 Y105.711 E16.02246
G1 X92.844 Y106.589 E16.05179
G1 X92.943 Y107.226 E16.07323
G1 X93.111 Y107.993 E16.09934
G1 X93.313 Y108.708 E16.12405
G1 X93.575 Y109.447 E16.15013
G1 X93.873 Y110.152 E16.17559
G1 X94.192 Y110.792 E16.19937
G1 X94.578 Y111.463 E16.22512
G1 X94.988 Y112.083 E16.24984
G1 X95.419 Y112.657 E16.27372
G1 X95.95 Y113.279 E16.30092
G1 X96.461 Y113.804 E16.32528
G1 X97.015 Y114.306 E16.35015
G1 X97.618 Y114.795 E16.37597
G1 X98.209 Y115.212 E16.40003
G1 X98.855 Y115.612 E16.4253
G1 X99.529 Y115.976 E16.45078
G1 X100.232 Y116.3 E16.47652
G1 X100.949 Y116.577 E16.50209
G1 X101.68 Y116.803 E16.52754
G1 X102.367 Y116.977 E16.55111
G1 X103.091 Y117.113 E16.57561
G1 X103.892 Y117.212 E16.60245
G1 X104.632 Y117.26 E16.62712
G1 X105.461 Y117.259 E16.65469
G1 X106.037 Y117.224 E16.67388
G1 X106.898 Y117.118 E16.70274
G1 X107.583 Y116.986 E16.72594
G1 X108.38 Y116.788 E16.75325
G1 X109.061 Y116.572 E16.77702
G1 X109.762 Y116.301 E16.80201
G1 X110.465 Y115.98 E16.82772
G1 X111.099 Y115.635 E16.85172
G1 X111.807 Y115.2 E16.87936
G1 X112.379 Y114.797 E16.90263
G1 X112.976 Y114.317 E16.92811
G1 X113.539 Y113.802 E16.95349
G1 X114.071 Y113.255 E16.97887
G1 X114.537 Y112.711 E17.00269
G1 X115.004 Y112.09 E17.02854
G1 X115.432 Y111.443 E17.05434
G1 X115.796 Y110.813 E17.07854
G1 X116.13 Y110.142 E17.10347
G1 X116.427 Y109.444 E17.1287
G1 X116.693 Y108.7 E17.15498
G1 X116.887 Y107.999 E17.17917
G1 X117.055 Y107.236 E17.20516
G1 X117.155 Y106.6 E17.22657
G1 X117.236 Y105.707 E17.25639
G1 X117.258 Y105.04 E17.27859
G1 X117.236 Y104.297 E17.30331
G1 X117.155 Y103.403 E17.33317
G1 X117.062 Y102.809 E17.35316
G1 X116.885 Y102.003 E17.38061
G1 X116.681 Y101.295 E17.40512
G1 X116.434 Y100.58 E17.43028
G1 X116.134 Y99.866 E17.45604
G1 X115.794 Y99.197 E17.481
G1 X115.418 Y98.542 E17.50612
G1 X115.009 Y97.93 E17.5306
G1 X114.568 Y97.343 E17.55502
G1 X114.049 Y96.738 E17.58153
G1 X113.538 Y96.211 E17.60594
G1 X112.959 Y95.682 E17.63203
G1 X112.399 Y95.231 E17.65594
G1 X111.759 Y94.781 E17.68197
G1 X111.155 Y94.407 E17.70559
G1 X110.431 Y94.018 E17.73293
G1 X109.79 Y93.721 E17.75643
G1 X109.065 Y93.438 E17.78231
G1 X108.345 Y93.207 E17.80746
G1 X107.625 Y93.03 E17.83212
G1 X106.894 Y92.895 E17.85685
G1 X106.186 Y92.81 E17.88057
G1 X105.323 Y92.753 E17.90933
G1 X104.629 Y92.755 E17.93241
G1 X103.844 Y92.807 E17.95858
G1 X103.106 Y92.895 E17.9833
G1 X102.389 Y93.027 E18.00755
G1 X101.642 Y93.212 E18.03314
G1 X100.93 Y93.439 E18.058
G1 X100.248 Y93.705 E18.08235
G1 X99.541 Y94.032 E18.10826
G1 X98.847 Y94.405 E18.13446
G1 X98.243 Y94.78 E18.15811
G1 X97.601 Y95.232 E18.18422
G1 X97.079 Y95.649 E18.20644
G1 X96.462 Y96.211 E18.2342
G1 X95.951 Y96.738 E18.25862
G1 X95.432 Y97.343 E18.28513
G1 X94.991 Y97.93 E18.30955
G1 X94.582 Y98.542 E18.33403
G1 X94.178 Y99.249 E18.36111
G1 X93.866 Y99.864 E18.38405
G1 X93.56 Y100.594 E18.41038
G1 X93.323 Y101.28 E18.43452
G1 X93.115 Y102.003 E18.45954
G1 X92.938 Y102.809 E18.48699
G1 X92.845 Y103.403 E18.50698
G1 X92.764 Y104.297 E18.53684
G1 X92.741 Y105.005 E18.5604
M204 S3000
M205 X10 Y10
G0 F3000 X94.927 Y105.002
M204 S1800
M205 X8 Y8
G1 F2100 X94.946 Y104.38 E18.5811
G1 X95.005 Y103.747 E18.60224
G1 X95.097 Y103.159 E18.62204
G1 X95.228 Y102.556 E18.64256
G1 X95.404 Y101.946 E18.66368
G1 X95.611 Y101.36 E18.68435
G1 X95.846 Y100.797 E18.70464
G1 X96.129 Y100.229 E18.72575
G1 X96.437 Y99.698 E18.74616
G1 X96.78 Y99.179 E18.76685
G1 X97.155 Y98.687 E18.78743
G1 X97.558 Y98.215 E18.80807
G1 X97.992 Y97.768 E18.82879
G1 X98.448 Y97.352 E18.84932
G1 X98.937 Y96.962 E18.87013
G1 X99.439 Y96.607 E18.89058
G1 X99.96 Y96.283 E18.91098
G1 X100.512 Y95.987 E18.93182
G1 X101.08 Y95.727 E18.95259
G1 X101.66 Y95.502 E18.97328
G1 X102.248 Y95.313 E18.99383
G1 X102.861 Y95.16 E19.01484
G1 X103.46 Y95.051 E19.03509
G1 X104.078 Y94.975 E19.0558
G1 X104.686 Y94.937 E19.07606
G1 X105.316 Y94.937 E19.09702
G1 X105.951 Y94.978 E19.11818
G1 X106.554 Y95.053 E19.13839
G1 X107.151 Y95.164 E19.15859
G1 X107.757 Y95.316 E19.17937
G1 X108.352 Y95.508 E19.20016
G1 X108.933 Y95.732 E19.22087
G1 X109.499 Y95.992 E19.24159
G1 X110.055 Y96.289 E19.26255
G1 X110.568 Y96.611 E19.2827
G1 X111.074 Y96.969 E19.30332
G1 X111.564 Y97.363 E19.32423
G1 X112.018 Y97.776 E19.34464
G1 X112.446 Y98.222 E19.3652
G1 X112.853 Y98.695 E19.38595
G1 X113.225 Y99.189 E19.40652
G1 X113.568 Y99.706 E19.42716
G1 X113.877 Y100.242 E19.44774
G1 X114.159 Y100.809 E19.4688
G1 X114.396 Y101.371 E19.48908
G1 X114.601 Y101.955 E19.50967
G1 X114.772 Y102.553 E19.53036
G1 X114.906 Y103.178 E19.55162
G1 X114.997 Y103.76 E19.57121
G1 X115.054 Y104.377 E19.59182
G1 X115.074 Y105.004 E19.61268
G1 X115.054 Y105.632 E19.63358
G1 X114.991 Y106.297 E19.6558
G1 X114.903 Y106.853 E19.67452
G1 X114.772 Y107.456 E19.69505
G1 X114.596 Y108.066 E19.71616
G1 X114.394 Y108.642 E19.73646
G1 X114.154 Y109.213 E19.75706
G1 X113.872 Y109.781 E19.77816
G1 X113.562 Y110.314 E19.79866
G1 X113.22 Y110.832 E19.81931
G1 X112.845 Y111.324 E19.83988
G1 X112.451 Y111.787 E19.86011
G1 X112.008 Y112.243 E19.88125
G1 X111.554 Y112.658 E19.90171
G1 X111.063 Y113.049 E19.92258
G1 X110.561 Y113.404 E19.94303
G1 X110.042 Y113.727 E19.96337
G1 X109.488 Y114.026 E19.9843
G1 X108.92 Y114.285 E20.00507
G1 X108.34 Y114.509 E20.02575
G1 X107.762 Y114.695 E20.04594
G1 X107.139 Y114.852 E20.06731
G1 X106.54 Y114.962 E20.08757
G1 X105.92 Y115.037 E20.10834
G1 X105.301 Y115.073 E20.12896
G1 X104.684 Y115.074 E20.14948
G1 X104.067 Y115.036 E20.17004
G1 X103.446 Y114.96 E20.19085
G1 X102.847 Y114.847 E20.21113
