;FLAVOR:Marlin
;TIME:4805
;Filament used: 4.14509m
;Layer height: 0.2
;MINX:80.258
;MINY:80.078
;MINZ:0.2
;MAXX:129.735
;MAXY:129.561
;MAXZ:49.8
;Generated with Cura_SteamEngine main
M140 S60
M105
M190 S60
M104 S200
M105
M109 S200
M82 ;absolute extrusion mode
G21 ;metric values
G90 ;absolute positioning
M82 ;set extruder to absolute mode
M107 ;start with the fan off
G28 X0 Y0 ;move X/Y to min endstops
G28 Z0 ;move Z to min endstops
G1 Z15.0 F100 ;move the platform down 15mm
G92 E0 ;zero the extruded length
G1 F200 E3 ;extrude 3mm of feed stock
G92 E0 ;zero the extruded length again
G1 F100
G0 Y20 F100
M117 Printing...
G5
G92 E0
G92 E0
G1 F2400 E-6
;LAYER_COUNT:249
;LAYER:0
M107
M204 S3000
M205 X10 Y10
G1 F600 Z0.275
G0 F3000 X89.544 Y92.77 Z0.275
G1 F600 Z0.2
G0 F3000 X86.257 Y99.901
M204 S1800
M205 X8 Y8
;TYPE:SKIRT
G1 F2400 E0
G1 X86.506 Y99.191 E0.03503
G1 X87.035 Y97.605 E0.11289
G1 X87.32 Y96.712 E0.15653
G1 X87.555 Y96.016 E0.19074
G1 X87.858 Y95.264 E0.22849
G1 X88.248 Y94.544 E0.26662
G1 X88.845 Y93.609 E0.31828
G1 X89.544 Y92.77 E0.36912
G1 X91.884 Y90.6 E0.51773
G1 X92.508 Y89.983 E0.55859
G1 X92.664 Y89.845 E0.56829
G1 X94.402 Y88.152 E0.68126
G1 X94.956 Y87.671 E0.71543
G1 X95.997 Y86.867 E0.77667
G1 X96.702 Y86.383 E0.81649
G1 X98.665 Y85.382 E0.9191
G1 X99.319 Y85.094 E0.95237
G1 X100.231 Y84.826 E0.99663
G1 X101.451 Y84.565 E1.05473
G1 X102.358 Y84.419 E1.09751
G1 X103.064 Y84.349 E1.13054
G1 X104.258 Y84.266 E1.18627
G1 X105.232 Y84.248 E1.23163
G1 X106.542 Y84.303 E1.29269
G1 X107.403 Y84.401 E1.33304
G1 X108.437 Y84.556 E1.38172
G1 X109.083 Y84.672 E1.41228
G1 X109.777 Y84.842 E1.44556
G1 X110.622 Y85.165 E1.48768
G1 X112.326 Y85.961 E1.57525
G1 X113.079 Y86.366 E1.61507
G1 X114.408 Y87.326 E1.69141
G1 X114.958 Y87.771 E1.72435
G1 X118.215 Y90.722 E1.929
G1 X120.19 Y92.532 E2.05375
G1 X120.69 Y93.044 E2.08707
G1 X121.158 Y93.639 E2.12232
G1 X121.51 Y94.163 E2.15171
G1 X121.85 Y94.726 E2.18234
G1 X122.185 Y95.358 E2.21564
G1 X122.457 Y96.05 E2.25027
G1 X123.063 Y97.908 E2.34127
G1 X123.606 Y99.525 E2.42069
G1 X124.205 Y101.26 E2.50616
G1 X124.4 Y101.948 E2.53946
G1 X124.542 Y102.79 E2.57922
G1 X124.608 Y103.517 E2.61321
G1 X124.632 Y104.23 E2.64643
G1 X124.616 Y104.945 E2.67973
G1 X124.515 Y105.683 E2.71442
G1 X123.906 Y108.771 E2.86098
G1 X123.591 Y110.131 E2.92598
G1 X123.379 Y110.797 E2.95853
G1 X123.069 Y111.641 E3.00039
G1 X122.649 Y112.698 E3.05336
G1 X122.317 Y113.403 E3.08964
G1 X121.678 Y114.559 E3.15115
G1 X121.281 Y115.221 E3.18709
G1 X120.914 Y115.782 E3.21831
G1 X120.456 Y116.43 E3.25525
G1 X120.048 Y116.956 E3.28625
G1 X119.557 Y117.505 E3.32055
G1 X119.069 Y117.988 E3.35252
G1 X118.65 Y118.36 E3.37861
G1 X117.367 Y119.468 E3.45755
G1 X116.385 Y120.351 E3.51904
G1 X115.671 Y120.906 E3.56115
G1 X114.89 Y121.412 E3.60448
G1 X114.262 Y121.771 E3.63816
G1 X113.637 Y122.109 E3.67125
G1 X112.762 Y122.514 E3.71615
G1 X112.136 Y122.785 E3.74791
G1 X111.281 Y123.1 E3.79034
G1 X110.403 Y123.376 E3.83319
G1 X109.709 Y123.55 E3.86651
G1 X108.794 Y123.657 E3.90941
G1 X107.772 Y123.703 E3.95704
G1 X106.846 Y123.732 E4.00018
G1 X105.926 Y123.776 E4.04307
G1 X105.134 Y123.803 E4.07997
G1 X103.816 Y123.765 E4.14137
G1 X101.288 Y123.669 E4.25917
G1 X100.576 Y123.602 E4.29247
G1 X99.674 Y123.399 E4.33552
G1 X99.133 Y123.235 E4.36184
G1 X98.134 Y122.898 E4.41093
G1 X97.268 Y122.532 E4.45471
G1 X96.531 Y122.193 E4.49249
G1 X95.232 Y121.493 E4.5612
G1 X94.306 Y120.889 E4.61268
G1 X93.679 Y120.406 E4.64953
G1 X92.609 Y119.47 E4.71573
G1 X91.988 Y118.911 E4.75463
G1 X91.043 Y118.089 E4.81295
G1 X90.469 Y117.522 E4.85052
G1 X90.009 Y117.007 E4.88268
G1 X89.566 Y116.453 E4.91571
G1 X89.187 Y115.92 E4.94616
G1 X88.623 Y115.066 E4.99382
G1 X88.1 Y114.171 E5.04208
G1 X87.778 Y113.597 E5.07273
G1 X87.446 Y112.913 E5.10813
G1 X87.041 Y111.934 E5.15747
G1 X86.695 Y111.022 E5.20289
G1 X86.513 Y110.462 E5.23031
G1 X86.33 Y109.794 E5.26256
G1 X86.202 Y109.27 E5.28767
G1 X86.009 Y108.363 E5.33085
G1 X85.482 Y105.676 E5.45836
G1 X85.383 Y104.967 E5.49169
G1 X85.355 Y104.088 E5.53264
G1 X85.418 Y103.182 E5.57493
G1 X85.494 Y102.566 E5.60383
G1 X85.621 Y101.862 E5.63714
G1 X85.783 Y101.3 E5.66438
G1 X86.257 Y99.901 E5.73316
M204 S3000
M205 X10 Y10
G1 F2400 E-0.26684
G0 F3000 X86.491 Y103.878
M204 S1800
M205 X8 Y8
G1 F2400 E5.73316
G1 X86.53 Y103.319 E5.75925
G1 X86.606 Y102.703 E5.78815
G1 X86.748 Y101.944 E5.8241
G1 X87.313 Y100.273 E5.90624
G1 X87.582 Y99.507 E5.94404
G1 X88.085 Y97.999 E6.01807
G1 X88.387 Y97.052 E6.06435
G1 X88.616 Y96.376 E6.09759
G1 X88.974 Y95.556 E6.13925
G1 X89.233 Y95.078 E6.16456
G1 X89.773 Y94.23 E6.21138
G1 X90.551 Y93.363 E6.26562
G1 X92.689 Y91.38 E6.4014
G1 X93.296 Y90.78 E6.44114
G1 X93.429 Y90.664 E6.44936
G1 X95.184 Y88.954 E6.56346
G1 X95.641 Y88.557 E6.59165
G1 X96.682 Y87.753 E6.65289
G1 X97.294 Y87.338 E6.68733
G1 X99.173 Y86.38 E6.78554
G1 X99.769 Y86.121 E6.8158
G1 X100.466 Y85.921 E6.84956
G1 X101.53 Y85.693 E6.90023
G1 X102.467 Y85.534 E6.94448
G1 X103.141 Y85.467 E6.97602
G1 X104.178 Y85.395 E7.02443
G1 X105.203 Y85.368 E7.07217
G1 X106.45 Y85.42 E7.13029
G1 X107.237 Y85.508 E7.16716
G1 X108.271 Y85.663 E7.21585
G1 X108.878 Y85.773 E7.24457
G1 X109.508 Y85.931 E7.27482
G1 X110.148 Y86.18 E7.30679
G1 X111.852 Y86.976 E7.39437
G1 X112.499 Y87.329 E7.42869
G1 X113.752 Y88.234 E7.50066
G1 X114.206 Y88.601 E7.52784
G1 X117.458 Y91.547 E7.73217
G1 X119.433 Y93.357 E7.85691
G1 X119.884 Y93.825 E7.88717
G1 X120.261 Y94.31 E7.91578
G1 X120.552 Y94.742 E7.94003
G1 X120.892 Y95.305 E7.97066
G1 X121.193 Y95.881 E8.00092
G1 X121.392 Y96.398 E8.02671
G1 X121.998 Y98.256 E8.11772
G1 X122.547 Y99.891 E8.19802
G1 X123.146 Y101.626 E8.28349
G1 X123.32 Y102.252 E8.31375
G1 X123.434 Y102.955 E8.34691
G1 X123.489 Y103.554 E8.37492
G1 X123.513 Y104.267 E8.40814
G1 X123.495 Y104.917 E8.43842
G1 X123.416 Y105.467 E8.46429
G1 X122.767 Y108.742 E8.61975
G1 X122.508 Y109.844 E8.67246
G1 X122.327 Y110.41 E8.70013
G1 X121.965 Y111.391 E8.74882
G1 X121.609 Y112.283 E8.79355
G1 X121.335 Y112.865 E8.8235
G1 X120.819 Y113.806 E8.87347
G1 X120.32 Y114.645 E8.91893
G1 X119.908 Y115.267 E8.95367
G1 X119.411 Y115.967 E8.99364
G1 X118.81 Y116.672 E9.03678
G1 X118.325 Y117.151 E9.06852
G1 X117.917 Y117.513 E9.09392
G1 X116.627 Y118.627 E9.17328
G1 X115.636 Y119.518 E9.23534
G1 X115.047 Y119.976 E9.27008
G1 X114.331 Y120.441 E9.30983
G1 X113.73 Y120.785 E9.34208
G1 X113.136 Y121.106 E9.37352
G1 X112.153 Y121.559 E9.42392
G1 X111.195 Y121.953 E9.47215
G1 X110.071 Y122.306 E9.52701
G1 X109.44 Y122.461 E9.55727
G1 X108.743 Y122.539 E9.58992
G1 X107.813 Y122.581 E9.63327
G1 X106.862 Y122.61 E9.67758
G1 X105.889 Y122.657 E9.72294
G1 X105.128 Y122.683 E9.75839
G1 X103.859 Y122.646 E9.81751
G1 X101.331 Y122.55 E9.93531
G1 X100.684 Y122.486 E9.96558
G1 X99.999 Y122.327 E9.99832
G1 X99.458 Y122.163 E10.02465
G1 X98.524 Y121.847 E10.07056
G1 X97.737 Y121.515 E10.11033
G1 X97.037 Y121.193 E10.14621
G1 X96.071 Y120.673 E10.1973
G1 X95.114 Y120.101 E10.24921
G1 X94.417 Y119.563 E10.29021
G1 X93.288 Y118.575 E10.36007
G1 X92.711 Y118.055 E10.39624
G1 X91.778 Y117.244 E10.4538
G1 X91.304 Y116.776 E10.48482
G1 X90.844 Y116.261 E10.51697
G1 X90.479 Y115.804 E10.5442
G1 X90.1 Y115.271 E10.57466
G1 X89.566 Y114.461 E10.61983
G1 X89.077 Y113.623 E10.66501
G1 X88.755 Y113.049 E10.69566
G1 X88.481 Y112.484 E10.7249
G1 X88.012 Y111.344 E10.7823
G1 X87.657 Y110.399 E10.8293
G1 X87.367 Y109.326 E10.88106
G1 X87.252 Y108.833 E10.90463
G1 X87.108 Y108.147 E10.93727
G1 X86.581 Y105.46 E11.06477
G1 X86.495 Y104.816 E11.09503
G1 X86.491 Y103.878 E11.1387
M204 S3000
M205 X10 Y10
G0 F3000 X85.915 Y104.09
M204 S1800
M205 X8 Y8
G1 F2400 X85.974 Y103.251 E11.17787
G1 X86.05 Y102.635 E11.20677
G1 X86.173 Y101.963 E11.23858
G1 X86.314 Y101.48 E11.26201
G1 X86.785 Y100.087 E11.33048
G1 X87.054 Y99.321 E11.36828
G1 X87.567 Y97.782 E11.44382
G1 X87.886 Y96.783 E11.49265
G1 X88.085 Y96.196 E11.52151
G1 X88.481 Y95.289 E11.5676
G1 X88.74 Y94.811 E11.59291
G1 X89.298 Y93.938 E11.64116
G1 X89.959 Y93.149 E11.68909
G1 X92.279 Y90.997 E11.83643
G1 X92.902 Y90.381 E11.87723
G1 X93.05 Y90.251 E11.8864
G1 X94.793 Y88.553 E11.99971
G1 X95.298 Y88.114 E12.03087
G1 X96.339 Y87.31 E12.09212
G1 X97 Y86.859 E12.12938
G1 X98.919 Y85.881 E12.22967
G1 X99.545 Y85.607 E12.26149
G1 X100.348 Y85.374 E12.30042
G1 X101.581 Y85.11 E12.35914
G1 X102.559 Y84.962 E12.40519
G1 X103.102 Y84.908 E12.4306
G1 X104.287 Y84.826 E12.48591
G1 X105.218 Y84.809 E12.52927
G1 X106.503 Y84.862 E12.58916
G1 X107.32 Y84.955 E12.62745
G1 X108.829 Y85.185 E12.69852
G1 X109.644 Y85.386 E12.73761
G1 X110.385 Y85.673 E12.77461
G1 X112.089 Y86.469 E12.86219
G1 X112.789 Y86.847 E12.89923
G1 X114.08 Y87.78 E12.9734
G1 X114.582 Y88.186 E13.00346
G1 X117.837 Y91.135 E13.20798
G1 X119.812 Y92.945 E13.33273
G1 X120.288 Y93.435 E13.36454
G1 X120.709 Y93.975 E13.39642
G1 X121.031 Y94.453 E13.42326
G1 X121.371 Y95.016 E13.45388
G1 X121.69 Y95.621 E13.48573
G1 X121.924 Y96.224 E13.51585
G1 X122.514 Y98.034 E13.60449
G1 X123.076 Y99.708 E13.68672
G1 X123.675 Y101.443 E13.77219
G1 X123.86 Y102.101 E13.80401
G1 X123.988 Y102.872 E13.84041
G1 X124.049 Y103.536 E13.87145
G1 X124.073 Y104.249 E13.90467
G1 X124.056 Y104.932 E13.93649
G1 X123.966 Y105.575 E13.96672
G1 X123.357 Y108.663 E14.11328
G1 X123.049 Y109.991 E14.17676
G1 X122.853 Y110.604 E14.20673
G1 X122.543 Y111.448 E14.24859
G1 X122.129 Y112.491 E14.30085
G1 X121.826 Y113.134 E14.33394
G1 X121.31 Y114.075 E14.38392
G1 X120.8 Y114.933 E14.43039
G1 X120.365 Y115.591 E14.46712
G1 X119.853 Y116.312 E14.5083
G1 X119.223 Y117.049 E14.55345
G1 X118.697 Y117.57 E14.58792
G1 X118.284 Y117.936 E14.61362
G1 X116.97 Y119.071 E14.69447
G1 X116.01 Y119.934 E14.75458
G1 X115.359 Y120.441 E14.793
G1 X114.611 Y120.927 E14.83453
G1 X114.137 Y121.2 E14.86
G1 X113.393 Y121.604 E14.89943
G1 X112.071 Y122.214 E14.96722
G1 X111.097 Y122.571 E15.01552
G1 X110.237 Y122.841 E15.0575
G1 X109.574 Y123.005 E15.0893
G1 X108.768 Y123.098 E15.12708
G1 X107.755 Y123.143 E15.1743
G1 X106.854 Y123.171 E15.21627
G1 X105.908 Y123.217 E15.26037
G1 X105.131 Y123.243 E15.29657
G1 X103.837 Y123.206 E15.35685
G1 X101.309 Y123.11 E15.47465
G1 X100.629 Y123.044 E15.50646
G1 X99.837 Y122.863 E15.54429
G1 X99.098 Y122.635 E15.5803
G1 X98.322 Y122.369 E15.6185
G1 X97.503 Y122.024 E15.65988
G1 X96.787 Y121.694 E15.69659
G1 X95.791 Y121.158 E15.74926
G1 X94.799 Y120.564 E15.8031
G1 X94.048 Y119.985 E15.84726
G1 X92.978 Y119.049 E15.91345
G1 X92.335 Y118.469 E15.95377
G1 X91.411 Y117.666 E16.01078
G1 X90.886 Y117.149 E16.04509
G1 X90.426 Y116.634 E16.07724
G1 X90.023 Y116.128 E16.10736
G1 X89.644 Y115.595 E16.13782
G1 X89.089 Y114.754 E16.18473
G1 X88.642 Y113.99 E16.22595
G1 X88.267 Y113.323 E16.26158
G1 X87.964 Y112.698 E16.29392
G1 X87.488 Y111.541 E16.35218
G1 X87.219 Y110.825 E16.3878
G1 X87.054 Y110.314 E16.4128
G1 X86.822 Y109.456 E16.45419
G1 X86.703 Y108.943 E16.47871
G1 X86.585 Y108.358 E16.5065
G1 X86.558 Y108.255 E16.51145
G1 X86.031 Y105.568 E16.63896
G1 X85.939 Y104.891 E16.67077
G1 X85.915 Y104.09 E16.70808
M204 S3000
M205 X10 Y10
G1 F2400 E10.70808
G0 F3000 X91.894 Y104.427
M204 S1800
M205 X8 Y8
;TYPE:SUPPORT
G1 F2400 E16.70808
G1 F2100 X92.021 Y104.786 E16.72075
G1 X92.557 Y107.772 E16.82165
G1 X92.78 Y108.643 E16.85156
G1 X93.437 Y110.339 E16.91205
G1 X94.285 Y111.8 E16.96824
G1 X94.857 Y112.632 E17.00182
G1 X95.275 Y113.105 E17.02281
G1 X95.684 Y113.141 E17.03647
G1 X97.791 Y115.136 E17.13298
G1 X97.996 Y115.5 E17.14687
G1 X98.36 Y115.747 E17.1615
G1 X99.365 Y116.308 E17.19978
G1 X100.428 Y116.779 E17.23845
G1 X101.52 Y117.135 E17.27666
G1 X101.889 Y116.951 E17.29037
G1 X103.764 Y117.215 E17.35335
G1 X104.998 Y117.273 E17.39444
G1 X106.228 Y117.215 E17.43539
G1 X108.16 Y116.943 E17.50028
G1 X108.518 Y117.122 E17.5136
G1 X109.559 Y116.784 E17.55
G1 X110.65 Y116.3 E17.5897
G1 X111.632 Y115.753 E17.62708
G1 X112.011 Y115.496 E17.64231
G1 X112.204 Y115.169 E17.65494
G1 X114.352 Y113.088 E17.75441
G1 X114.775 Y113.058 E17.76852
G1 X115.131 Y112.649 E17.78655
G1 X115.731 Y111.78 E17.82168
G1 X116.553 Y110.355 E17.87639
G1 X117.236 Y108.594 E17.93921
G1 X117.445 Y107.774 E17.96736
G1 X117.738 Y106.162 E18.02185
G1 X117.994 Y104.808 E18.06769
G1 X118.105 Y104.427 E18.08088
G1 X118.101 Y104.007 E18.09485
G1 X118.03 Y103.392 E18.11545
G1 X117.866 Y103.049 E18.12809
G1 X117.157 Y100.835 E18.20541
G1 X116.249 Y98.47 E18.28967
G1 X116.237 Y98.066 E18.30311
G1 X115.797 Y97.378 E18.33028
G1 X115.385 Y97.261 E18.34452
G1 X114.003 Y95.706 E18.41371
G1 X112.689 Y94.589 E18.47108
G1 X111.457 Y93.757 E18.52052
G1 X111.371 Y93.363 E18.53393
G1 X110.725 Y92.996 E18.55865
G1 X110.558 Y92.609 E18.57266
G1 X109.729 Y92.202 E18.60338
G1 X109.518 Y91.858 E18.6168
G1 X108.199 Y91.334 E18.66401
G1 X107.865 Y91.087 E18.67782
G1 X106.735 Y90.895 E18.71595
G1 X105.877 Y90.807 E18.74463
G1 X104.801 Y90.784 E18.78043
G1 X103.83 Y90.831 E18.81276
G1 X102.911 Y90.941 E18.84355
G1 X101.649 Y91.183 E18.88629
G1 X101.313 Y91.48 E18.9012
G1 X100.016 Y92.027 E18.94802
G1 X99.816 Y92.403 E18.96219
G1 X98.989 Y92.82 E18.99299
G1 X98.946 Y92.962 E18.99793
G1 X98.697 Y93.313 E19.01224
G1 X98.093 Y93.676 E19.03568
G1 X97.821 Y93.981 E19.04927
G1 X95.793 Y95.92 E19.14259
G1 X94.644 Y97.228 E19.2005
G1 X94.553 Y97.287 E19.2041
G1 X94.216 Y97.354 E19.21553
G1 X93.759 Y98.065 E19.24364
G1 X93.755 Y98.453 E19.25655
G1 X92.848 Y100.818 E19.34079
G1 X92.151 Y103.014 E19.41742
G1 X91.972 Y103.389 E19.43125
G1 X91.903 Y103.866 E19.44728
G1 X91.894 Y104.427 E19.46594
M204 S3000
M205 X10 Y10
G1 F2400 E13.46594
G0 F3000 X96.211 Y103.864
M204 S1800
M205 X8 Y8
G1 F2400 E19.46594
G1 F2100 X96.494 Y102.517 E19.51172
G1 X96.687 Y101.855 E19.53465
G1 X96.806 Y101.77 E19.53952
G1 X97.416 Y101.737 E19.55983
G1 X97.528 Y101.854 E19.56522
G1 X97.719 Y102.325 E19.58213
G1 X98.214 Y103.249 E19.61699
G1 X98.311 Y103.263 E19.62025
G1 X98.666 Y103.782 E19.64116
G1 X99.263 Y104.471 E19.67149
G1 X99.585 Y104.766 E19.68601
G1 X99.632 Y104.766 E19.68757
G1 X100.657 Y105.514 E19.72978
G1 X101.116 Y105.781 E19.74744
G1 X101.353 Y106.31 E19.76672
G1 X101.738 Y106.474 E19.78064
G1 X102.045 Y105.971 E19.80024
G1 X102.117 Y105.911 E19.80335
G1 X102.258 Y105.897 E19.80807
G1 X103.193 Y106.174 E19.8405
G1 X104.031 Y106.323 E19.86881
G1 X104.885 Y106.372 E19.89726
G1 X105.738 Y106.322 E19.92568
G1 X106.583 Y106.174 E19.95421
G1 X107.884 Y105.789 E19.99934
G1 X108.048 Y105.849 E20.00515
G1 X108.339 Y106.334 E20.02396
G1 X108.696 Y106.159 E20.03718
G1 X108.918 Y105.632 E20.0562
G1 X109.109 Y105.519 E20.06358
G1 X109.842 Y104.985 E20.09375
G1 X110.296 Y104.564 E20.11434
G1 X110.442 Y104.55 E20.11922
G1 X111.108 Y103.781 E20.15306
G1 X111.608 Y103.044 E20.18268
G1 X111.682 Y103.018 E20.18529
G1 X112.052 Y102.327 E20.21136
G1 X112.371 Y101.536 E20.23972
G1 X112.484 Y101.434 E20.24479
G1 X113.087 Y101.459 E20.26486
G1 X113.202 Y101.538 E20.2695
G1 X113.514 Y102.591 E20.30603
G1 X113.788 Y103.875 E20.3497
G1 X113.783 Y105.073 E20.38954
G1 X113.718 Y105.993 E20.42022
G1 X113.608 Y106.782 E20.44671
G1 X113.252 Y107.847 E20.48406
G1 X112.879 Y108.716 E20.51551
G1 X112.338 Y109.728 E20.55368
G1 X111.843 Y110.365 E20.58051
G1 X111.183 Y111.069 E20.61261
G1 X110.444 Y111.716 E20.64528
G1 X109.645 Y112.281 E20.67783
G1 X108.813 Y112.75 E20.70959
G1 X107.897 Y113.141 E20.74272
G1 X106.972 Y113.419 E20.77484
G1 X105.986 Y113.587 E20.80811
G1 X104.989 Y113.639 E20.84131
G1 X104.007 Y113.587 E20.87402
G1 X103.052 Y113.425 E20.90624
G1 X102.105 Y113.142 E20.93911
G1 X101.188 Y112.751 E20.97227
G1 X100.355 Y112.281 E21.00408
G1 X99.556 Y111.716 E21.03663
G1 X98.825 Y111.076 E21.06894
G1 X98.156 Y110.363 E21.10146
G1 X97.67 Y109.738 E21.1278
G1 X97.121 Y108.714 E21.16644
G1 X96.742 Y107.831 E21.1984
G1 X96.399 Y106.812 E21.23416
G1 X96.281 Y105.978 E21.26218
G1 X96.217 Y105.064 E21.29265
G1 X96.211 Y103.864 E21.33256
M204 S3000
M205 X10 Y10
G0 F3000 X96.524 Y101.916
M204 S1800
M205 X8 Y8
G1 F1500 X93.29 Y100.049 E21.50644
M204 S3000
M205 X10 Y10
G1 F2400 E15.50644
