;FLAVOR:Marlin
;TIME:1127
;Filament used: 1.02453m
;Layer height: 0.2
;MINX:77.539
;MINY:74.061
;MINZ:0.2
;MAXX:127.025
;MAXY:123.555
;MAXZ:24.8
;Generated with Cura_SteamEngine main
M140 S60
M105
M190 S60
M104 S200
M105
M109 S200
M82 ;absolute extrusion mode
G21 ;metric values
G90 ;absolute positioning
M82 ;set extruder to absolute mode
M107 ;start with the fan off
G28 X0 Y0 ;move X/Y to min endstops
G28 Z0 ;move Z to min endstops
G1 Z15.0 F100 ;move the platform down 15mm
G92 E0 ;zero the extruded length
G1 F200 E3 ;extrude 3mm of feed stock
G92 E0 ;zero the extruded length again
G1 F100
G0 Y20 F100
M117 Printing...
G5
G92 E0
G92 E0
G1 F2400 E-6
;LAYER_COUNT:124
;LAYER:0
M107
M204 S3000
M205 X10 Y10
G1 F600 Z0.275
G0 F3000 X88.74 Y85.515 Z0.275
G1 F600 Z0.2
G0 F3000 X83.592 Y95.542
M204 S1800
M205 X8 Y8
;TYPE:SKIRT
G1 F2400 E0
G1 X83.782 Y94.596 E0.04493
G1 X84.094 Y93.407 E0.10217
G1 X84.406 Y92.447 E0.14917
G1 X84.884 Y91.247 E0.20932
G1 X85.456 Y90.041 E0.27147
G1 X85.939 Y89.171 E0.31781
G1 X86.678 Y88.017 E0.38162
G1 X87.309 Y87.155 E0.43136
G1 X87.935 Y86.393 E0.47728
G1 X88.74 Y85.515 E0.53274
G1 X89.64 Y84.67 E0.59023
G1 X90.406 Y84.002 E0.63755
G1 X91.545 Y83.166 E0.70334
G1 X92.369 Y82.629 E0.74914
G1 X93.482 Y81.998 E0.80872
G1 X94.458 Y81.523 E0.85926
G1 X95.75 Y80.993 E0.92429
G1 X96.778 Y80.65 E0.97475
G1 X97.732 Y80.388 E1.02082
G1 X99.025 Y80.117 E1.08233
G1 X100.263 Y79.951 E1.14049
G1 X101.267 Y79.862 E1.18743
G1 X102.528 Y79.838 E1.24616
G1 X103.714 Y79.893 E1.30144
G1 X104.744 Y80.002 E1.34967
G1 X105.335 Y80.089 E1.37748
G1 X106.118 Y80.229 E1.41452
G1 X107.09 Y80.455 E1.46099
G1 X108.362 Y80.844 E1.52293
G1 X109.217 Y81.147 E1.56517
G1 X110.527 Y81.718 E1.63171
G1 X111.444 Y82.191 E1.67975
G1 X112.469 Y82.798 E1.73522
G1 X113.462 Y83.477 E1.79124
G1 X114.531 Y84.316 E1.85451
G1 X115.25 Y84.954 E1.89927
G1 X116.198 Y85.908 E1.9619
G1 X116.807 Y86.605 E2.005
G1 X117.52 Y87.498 E2.05821
G1 X118.292 Y88.622 E2.1217
G1 X118.877 Y89.613 E2.17529
G1 X119.251 Y90.309 E2.21208
G1 X119.677 Y91.215 E2.2587
G1 X120.035 Y92.113 E2.30371
G1 X120.405 Y93.157 E2.35529
G1 X120.729 Y94.374 E2.41393
G1 X120.875 Y95.016 E2.44459
G1 X121.073 Y96.162 E2.49874
G1 X121.208 Y97.412 E2.55729
G1 X121.256 Y98.513 E2.6086
G1 X121.243 Y99.585 E2.65852
G1 X121.178 Y100.592 E2.70551
G1 X121.069 Y101.531 E2.74953
G1 X120.93 Y102.312 E2.78646
G1 X120.736 Y103.239 E2.83056
G1 X120.475 Y104.209 E2.87734
G1 X120.064 Y105.442 E2.93786
G1 X119.697 Y106.352 E2.98355
G1 X119.079 Y107.643 E3.05019
G1 X118.552 Y108.577 E3.10013
G1 X117.942 Y109.534 E3.15298
G1 X117.275 Y110.445 E3.20555
G1 X116.547 Y111.325 E3.25873
G1 X115.866 Y112.066 E3.30559
G1 X114.858 Y113.021 E3.37025
G1 X114.156 Y113.615 E3.41307
G1 X113.069 Y114.424 E3.47616
G1 X112.23 Y114.971 E3.5228
G1 X111.121 Y115.605 E3.58228
G1 X110.043 Y116.129 E3.6381
G1 X108.903 Y116.595 E3.69544
G1 X107.796 Y116.967 E3.74982
G1 X106.658 Y117.273 E3.8047
G1 X105.632 Y117.487 E3.8535
G1 X104.494 Y117.65 E3.90703
G1 X103.941 Y117.706 E3.93291
G1 X103.141 Y117.766 E3.97027
G1 X102.033 Y117.786 E4.02187
G1 X101.057 Y117.74 E4.06737
G1 X100.216 Y117.67 E4.10666
G1 X99.526 Y117.581 E4.13906
G1 X98.49 Y117.409 E4.18796
G1 X97.339 Y117.127 E4.24314
G1 X96.587 Y116.914 E4.27953
G1 X95.34 Y116.465 E4.34125
G1 X94.873 Y116.275 E4.36472
G1 X93.992 Y115.877 E4.40974
G1 X93.256 Y115.496 E4.44833
G1 X92.78 Y115.233 E4.47365
G1 X92.183 Y114.876 E4.50604
G1 X91.077 Y114.123 E4.56834
G1 X90.267 Y113.501 E4.6159
G1 X89.239 Y112.598 E4.67961
G1 X88.324 Y111.666 E4.74043
G1 X87.681 Y110.927 E4.78604
G1 X87.08 Y110.157 E4.83152
G1 X86.777 Y109.746 E4.8553
G1 X86.364 Y109.143 E4.88933
G1 X85.684 Y108.008 E4.95094
G1 X85.167 Y107.007 E5.0034
G1 X84.68 Y105.904 E5.05955
G1 X84.311 Y104.903 E5.10922
G1 X83.978 Y103.824 E5.16181
G1 X83.693 Y102.637 E5.21865
G1 X83.494 Y101.481 E5.27327
G1 X83.364 Y100.287 E5.32919
G1 X83.312 Y99.241 E5.37796
G1 X83.326 Y98.017 E5.43496
G1 X83.412 Y96.807 E5.49144
G1 X83.592 Y95.542 E5.55094
M204 S3000
M205 X10 Y10
G1 F2400 E-0.44906
G0 F3000 X83.872 Y99.235
M204 S1800
M205 X8 Y8
G1 F2400 E5.55094
G1 X83.886 Y98.045 E5.60636
G1 X83.968 Y96.865 E5.66143
G1 X84.143 Y95.642 E5.71896
G1 X84.33 Y94.71 E5.76322
G1 X84.627 Y93.582 E5.81754
G1 X84.931 Y92.644 E5.86345
G1 X85.4 Y91.465 E5.92254
G1 X85.924 Y90.36 E5.97948
G1 X86.422 Y89.455 E6.02758
G1 X87.138 Y88.336 E6.08944
G1 X87.749 Y87.501 E6.13762
G1 X88.356 Y86.762 E6.18215
G1 X89.135 Y85.914 E6.23577
G1 X90.024 Y85.078 E6.29259
G1 X90.758 Y84.438 E6.33794
G1 X91.864 Y83.626 E6.40183
G1 X92.665 Y83.105 E6.44632
G1 X93.751 Y82.489 E6.50446
G1 X94.688 Y82.034 E6.55296
G1 X95.937 Y81.522 E6.61582
G1 X96.955 Y81.182 E6.66579
G1 X97.85 Y80.936 E6.70901
G1 X99.115 Y80.67 E6.76921
G1 X100.06 Y80.538 E6.81364
G1 X100.863 Y80.456 E6.85122
G1 X101.596 Y80.416 E6.8854
G1 X102.527 Y80.398 E6.92876
G1 X103.646 Y80.45 E6.98092
G1 X104.666 Y80.556 E7.02868
G1 X105.237 Y80.64 E7.05555
G1 X105.988 Y80.774 E7.09107
G1 X106.948 Y80.998 E7.13697
G1 X107.967 Y81.305 E7.18653
G1 X108.619 Y81.525 E7.21857
G1 X109.241 Y81.769 E7.24968
G1 X110.309 Y82.235 E7.30394
G1 X111.163 Y82.675 E7.34868
G1 X112.282 Y83.345 E7.40941
G1 X113.141 Y83.937 E7.45798
G1 X114.165 Y84.74 E7.51858
G1 X114.871 Y85.367 E7.56254
G1 X115.69 Y86.193 E7.61671
G1 X116.085 Y86.623 E7.6439
G1 X116.526 Y87.145 E7.67572
G1 X117.071 Y87.834 E7.71662
G1 X117.823 Y88.929 E7.77848
G1 X118.384 Y89.878 E7.82981
G1 X118.752 Y90.562 E7.86598
G1 X119.16 Y91.432 E7.91072
G1 X119.515 Y92.321 E7.95529
G1 X119.864 Y93.307 E8.004
G1 X120.13 Y94.286 E8.05124
G1 X120.325 Y95.126 E8.09139
G1 X120.517 Y96.234 E8.14375
G1 X120.621 Y97.193 E8.18867
G1 X120.67 Y97.847 E8.21921
G1 X120.695 Y98.69 E8.25848
G1 X120.686 Y99.404 E8.29173
G1 X120.622 Y100.528 E8.34415
G1 X120.516 Y101.442 E8.387
G1 X120.381 Y102.199 E8.4228
G1 X120.193 Y103.104 E8.46584
G1 X119.946 Y104.023 E8.51015
G1 X119.538 Y105.247 E8.57023
G1 X119.176 Y106.144 E8.61527
G1 X118.581 Y107.388 E8.67948
G1 X118.086 Y108.265 E8.72638
G1 X117.397 Y109.339 E8.78579
G1 X116.821 Y110.116 E8.83083
G1 X116.127 Y110.955 E8.88153
G1 X115.464 Y111.676 E8.92714
G1 X114.488 Y112.601 E8.98975
G1 X113.814 Y113.171 E9.03086
G1 X112.742 Y113.968 E9.09306
G1 X111.936 Y114.494 E9.13787
G1 X110.867 Y115.105 E9.19521
G1 X109.817 Y115.616 E9.24958
G1 X108.689 Y116.077 E9.30632
G1 X107.638 Y116.43 E9.35795
G1 X106.521 Y116.73 E9.4118
G1 X105.538 Y116.935 E9.45856
G1 X104.434 Y117.093 E9.51049
G1 X103.9 Y117.148 E9.53549
G1 X103.126 Y117.206 E9.57163
G1 X102.034 Y117.226 E9.62249
G1 X101.083 Y117.181 E9.66682
G1 X100.266 Y117.112 E9.705
G1 X99.617 Y117.028 E9.73547
G1 X98.606 Y116.86 E9.78319
G1 X97.492 Y116.588 E9.83659
G1 X96.757 Y116.38 E9.87216
G1 X95.318 Y115.862 E9.94337
G1 X94.236 Y115.373 E9.99866
G1 X93.337 Y114.903 E10.0459
G1 X92.889 Y114.648 E10.0699
G1 X92.351 Y114.313 E10.09941
G1 X91.402 Y113.668 E10.15284
G1 X90.523 Y112.986 E10.20465
G1 X89.605 Y112.173 E10.26175
G1 X88.742 Y111.293 E10.31914
G1 X88.122 Y110.581 E10.3631
G1 X87.353 Y109.595 E10.42133
G1 X86.838 Y108.844 E10.46373
G1 X86.18 Y107.746 E10.52333
G1 X85.791 Y106.994 E10.56276
G1 X85.514 Y106.414 E10.59269
G1 X85.204 Y105.703 E10.6288
G1 X84.835 Y104.705 E10.67835
G1 X84.511 Y103.651 E10.72969
G1 X84.229 Y102.458 E10.78678
G1 X84.049 Y101.407 E10.83643
G1 X83.922 Y100.235 E10.89132
G1 X83.872 Y99.235 E10.93794
M204 S3000
M205 X10 Y10
G0 F3000 X84.432 Y99.215
M204 S1800
M205 X8 Y8
G1 F2400 X84.446 Y98.065 E10.9915
G1 X84.512 Y97.048 E11.03895
G1 X84.696 Y95.732 E11.10083
G1 X84.873 Y94.847 E11.14285
G1 X85.17 Y93.721 E11.19708
G1 X85.457 Y92.838 E11.24031
G1 X85.911 Y91.695 E11.29758
G1 X86.45 Y90.557 E11.35621
G1 X86.907 Y89.735 E11.4
G1 X87.599 Y88.653 E11.45981
G1 X88.149 Y87.906 E11.503
G1 X88.697 Y87.228 E11.5436
G1 X89.532 Y86.308 E11.60145
G1 X90.407 Y85.486 E11.65735
G1 X91.102 Y84.881 E11.70026
G1 X92.194 Y84.079 E11.76335
G1 X92.946 Y83.589 E11.80514
G1 X94.162 Y82.906 E11.87008
G1 X95.075 Y82.481 E11.91698
G1 X96.137 Y82.045 E11.97043
G1 X97.258 Y81.674 E12.02542
G1 X98.15 Y81.445 E12.0683
G1 X99.216 Y81.221 E12.11902
G1 X100.369 Y81.066 E12.17319
G1 X101.318 Y80.981 E12.21756
G1 X102.513 Y80.959 E12.27321
G1 X103.621 Y81.01 E12.32486
G1 X104.588 Y81.111 E12.37013
G1 X105.139 Y81.192 E12.39606
G1 X106.025 Y81.357 E12.43803
G1 X106.799 Y81.538 E12.47504
G1 X107.805 Y81.841 E12.52396
G1 X108.436 Y82.054 E12.55497
G1 X109.017 Y82.282 E12.58404
G1 X110.062 Y82.738 E12.63713
G1 X110.895 Y83.168 E12.68078
G1 X111.967 Y83.808 E12.73891
G1 X112.804 Y84.384 E12.78623
G1 X113.808 Y85.173 E12.84568
G1 X114.488 Y85.776 E12.888
G1 X115.282 Y86.577 E12.94052
G1 X115.659 Y86.987 E12.96646
G1 X116.087 Y87.492 E12.99728
G1 X116.615 Y88.159 E13.03689
G1 X117.346 Y89.222 E13.09697
G1 X117.89 Y90.143 E13.14677
G1 X118.255 Y90.823 E13.18271
G1 X118.645 Y91.653 E13.22541
G1 X118.995 Y92.529 E13.26934
G1 X119.333 Y93.488 E13.31669
G1 X119.589 Y94.43 E13.36214
G1 X119.779 Y95.249 E13.40129
G1 X119.96 Y96.298 E13.45086
G1 X120.092 Y97.51 E13.50763
G1 X120.137 Y98.545 E13.55586
G1 X120.126 Y99.397 E13.59554
G1 X120.063 Y100.489 E13.64647
G1 X119.961 Y101.366 E13.68759
G1 X119.786 Y102.352 E13.73422
G1 X119.542 Y103.379 E13.78337
G1 X119.358 Y104.017 E13.81429
G1 X119.012 Y105.056 E13.86528
G1 X118.672 Y105.899 E13.90761
G1 X118.08 Y107.134 E13.97138
G1 X117.598 Y107.988 E14.01704
G1 X116.929 Y109.032 E14.07478
G1 X116.292 Y109.876 E14.12401
G1 X115.697 Y110.595 E14.16747
G1 X115.07 Y111.278 E14.21064
G1 X114.108 Y112.189 E14.27234
G1 X113.465 Y112.733 E14.31156
G1 X112.426 Y113.506 E14.37186
G1 X111.648 Y114.013 E14.4151
G1 X110.596 Y114.615 E14.47154
G1 X109.591 Y115.104 E14.52358
G1 X108.488 Y115.554 E14.57905
G1 X107.475 Y115.893 E14.62879
G1 X106.385 Y116.186 E14.68135
G1 X105.46 Y116.38 E14.72535
G1 X104.581 Y116.51 E14.76673
G1 X103.858 Y116.589 E14.8006
G1 X103.091 Y116.646 E14.83641
G1 X102.04 Y116.665 E14.88536
G1 X100.882 Y116.606 E14.93935
G1 X99.946 Y116.515 E14.98314
G1 X98.726 Y116.313 E15.04072
G1 X97.854 Y116.104 E15.08247
G1 X96.935 Y115.849 E15.12688
G1 X95.523 Y115.34 E15.19677
G1 X94.489 Y114.873 E15.2496
G1 X93.379 Y114.293 E15.30792
G1 X92.666 Y113.85 E15.34701
G1 X91.738 Y113.219 E15.39926
G1 X90.967 Y112.625 E15.44458
G1 X89.994 Y111.77 E15.50489
G1 X89.139 Y110.897 E15.56179
G1 X88.466 Y110.113 E15.60991
G1 X87.797 Y109.255 E15.66057
G1 X87.314 Y108.549 E15.7004
G1 X86.671 Y107.476 E15.75865
G1 X86.175 Y106.518 E15.80888
G1 X85.723 Y105.493 E15.86104
G1 X85.37 Y104.537 E15.9085
G1 X85.041 Y103.456 E15.96111
G1 X84.786 Y102.393 E16.01201
G1 X84.605 Y101.338 E16.06186
G1 X84.482 Y100.197 E16.11529
G1 X84.432 Y99.215 E16.16108
M204 S3000
M205 X10 Y10
G1 F2400 E10.16108
G0 F3000 X89.84 Y98.781
M204 S1800
M205 X8 Y8
;TYPE:SUPPORT
G1 F2400 E16.16108
G1 F2100 X89.863 Y99.571 E16.18736
G1 X89.932 Y100.347 E16.21328
G1 X90.048 Y101.087 E16.23819
G1 X90.21 Y101.823 E16.26326
G1 X90.43 Y102.606 E16.29031
G1 X90.664 Y103.273 E16.31382
G1 X90.971 Y103.996 E16.33994
G1 X91.315 Y104.687 E16.36561
G1 X91.725 Y105.403 E16.39306
G1 X92.115 Y105.984 E16.41633
G1 X92.581 Y106.606 E16.44218
G1 X93.092 Y107.2 E16.46824
G1 X93.622 Y107.749 E16.49362
G1 X94.151 Y108.232 E16.51745
G1 X94.796 Y108.75 E16.54496
G1 X95.42 Y109.192 E16.5704
G1 X96.06 Y109.584 E16.59536
G1 X96.71 Y109.937 E16.61996
G1 X97.472 Y110.288 E16.64786
G1 X98.131 Y110.546 E16.6714
G1 X98.921 Y110.789 E16.69889
G1 X99.625 Y110.969 E16.72306
G1 X100.33 Y111.103 E16.74693
G1 X101.123 Y111.197 E16.77349
G1 X101.925 Y111.249 E16.80022
G1 X102.645 Y111.25 E16.82417
G1 X103.384 Y111.202 E16.8488
G1 X104.271 Y111.091 E16.87853
G1 X104.903 Y110.975 E16.8999
G1 X105.682 Y110.78 E16.92661
G1 X106.421 Y110.546 E16.95239
G1 X107.14 Y110.267 E16.97804
G1 X107.801 Y109.965 E17.00221
G1 X108.484 Y109.599 E17.02799
G1 X109.188 Y109.162 E17.05555
G1 X109.782 Y108.744 E17.0797
G1 X110.385 Y108.255 E17.10553
G1 X110.953 Y107.741 E17.131
G1 X111.477 Y107.197 E17.15613
G1 X111.982 Y106.611 E17.18186
G1 X112.434 Y106.009 E17.20689
G1 X112.859 Y105.37 E17.23242
G1 X113.252 Y104.683 E17.25874
G1 X113.584 Y104.02 E17.2834
G1 X113.893 Y103.292 E17.30971
G1 X114.153 Y102.551 E17.33583
G1 X114.337 Y101.889 E17.35868
G1 X114.523 Y101.05 E17.38726
G1 X114.638 Y100.337 E17.41128
G1 X114.704 Y99.587 E17.43633
G1 X114.726 Y98.829 E17.46155
G1 X114.704 Y98.07 E17.4868
G1 X114.633 Y97.285 E17.51302
G1 X114.509 Y96.497 E17.53955
G1 X114.345 Y95.763 E17.56457
G1 X114.138 Y95.028 E17.58996
G1 X113.899 Y94.355 E17.61372
G1 X113.566 Y93.556 E17.64251
G1 X113.271 Y92.972 E17.66427
G1 X112.873 Y92.278 E17.69088
G1 X112.437 Y91.617 E17.71721
G1 X111.951 Y90.979 E17.74389
G1 X111.48 Y90.434 E17.76785
G1 X110.946 Y89.878 E17.79349
G1 X110.387 Y89.369 E17.81863
G1 X109.781 Y88.88 E17.84453
G1 X109.147 Y88.433 E17.87033
G1 X108.482 Y88.021 E17.89635
G1 X107.866 Y87.689 E17.91963
G1 X107.143 Y87.357 E17.94609
G1 X106.427 Y87.082 E17.9716
G1 X105.64 Y86.827 E17.99911
G1 X104.962 Y86.659 E18.02235
G1 X104.21 Y86.522 E18.04777
G1 X103.432 Y86.425 E18.07385
G1 X102.645 Y86.374 E18.10008
G1 X101.933 Y86.373 E18.12376
G1 X101.134 Y86.425 E18.15039
G1 X100.381 Y86.514 E18.17561
G1 X99.606 Y86.657 E18.20182
G1 X98.913 Y86.832 E18.22559
G1 X98.112 Y87.085 E18.25353
G1 X97.447 Y87.346 E18.27729
G1 X96.792 Y87.646 E18.30125
G1 X96.036 Y88.049 E18.32975
G1 X95.432 Y88.424 E18.35339
G1 X94.767 Y88.892 E18.38044
G1 X94.185 Y89.366 E18.4054
G1 X93.609 Y89.886 E18.43121
G1 X93.081 Y90.435 E18.45655
G1 X92.595 Y91.004 E18.48144
G1 X92.137 Y91.61 E18.5067
G1 X91.705 Y92.259 E18.53263
G1 X91.342 Y92.891 E18.55687
G1 X90.982 Y93.609 E18.58359
G1 X90.667 Y94.349 E18.61034
G1 X90.425 Y95.044 E18.63481
G1 X90.219 Y95.765 E18.65976
G1 X90.052 Y96.52 E18.68547
G1 X89.938 Y97.253 E18.71015
G1 X89.863 Y98.082 E18.73783
G1 X89.84 Y98.781 E18.76109
M204 S3000
M205 X10 Y10
G0 F3000 X92.971 Y98.807
M204 S1800
M205 X8 Y8
G1 F2100 X92.989 Y98.232 E18.78023
G1 X93.044 Y97.646 E18.7998
G1 X93.129 Y97.105 E18.81802
G1 X93.25 Y96.547 E18.83701
G1 X93.412 Y95.982 E18.85656
G1 X93.604 Y95.44 E18.87568
G1 X93.821 Y94.92 E18.89442
G1 X94.082 Y94.398 E18.91383
G1 X94.368 Y93.904 E18.93282
G1 X94.685 Y93.426 E18.9519
G1 X95.033 Y92.966 E18.97108
G1 X95.404 Y92.533 E18.99005
G1 X95.806 Y92.12 E19.00921
G1 X96.225 Y91.737 E19.0281
G1 X96.679 Y91.375 E19.04741
G1 X97.143 Y91.047 E19.06631
G1 X97.613 Y90.755 E19.08471
G1 X98.137 Y90.472 E19.10452
G1 X98.647 Y90.237 E19.1232
G1 X99.197 Y90.025 E19.1428
G1 X99.738 Y89.852 E19.16169
G1 X100.308 Y89.709 E19.18124
G1 X100.86 Y89.609 E19.1999
G1 X101.43 Y89.539 E19.219
G1 X101.992 Y89.503 E19.23773
G1 X102.577 Y89.503 E19.25718
G1 X103.147 Y89.54 E19.27618
G1 X103.72 Y89.611 E19.29539
G1 X104.273 Y89.713 E19.31409
G1 X104.84 Y89.855 E19.33353
G1 X105.382 Y90.031 E19.35248
G1 X105.934 Y90.242 E19.37214
G1 X106.441 Y90.477 E19.39073
G1 X106.958 Y90.755 E19.41025
G1 X107.431 Y91.051 E19.42881
G1 X107.899 Y91.382 E19.44787
G1 X108.357 Y91.751 E19.46744
G1 X108.771 Y92.128 E19.48606
G1 X109.17 Y92.543 E19.50521
G1 X109.543 Y92.974 E19.52416
G1 X109.881 Y93.425 E19.54291
G1 X110.204 Y93.911 E19.56232
G1 X110.489 Y94.408 E19.58137
G1 X110.747 Y94.926 E19.60062
G1 X110.967 Y95.451 E19.61955
G1 X111.159 Y95.992 E19.63865
G1 X111.316 Y96.544 E19.65774
G1 X111.438 Y97.107 E19.6769
G1 X111.526 Y97.67 E19.69585
G1 X111.577 Y98.23 E19.71455
G1 X111.596 Y98.805 E19.73369
G1 X111.577 Y99.39 E19.75315
G1 X111.524 Y99.966 E19.77239
G1 X111.438 Y100.519 E19.79101
G1 X111.314 Y101.089 E19.81041
G1 X111.154 Y101.64 E19.82949
G1 X110.963 Y102.183 E19.84864
G1 X110.743 Y102.708 E19.86757
G1 X110.483 Y103.226 E19.88685
G1 X110.199 Y103.719 E19.90577
G1 X109.882 Y104.197 E19.92485
G1 X109.536 Y104.653 E19.94388
G1 X109.163 Y105.09 E19.96299
G1 X108.761 Y105.502 E19.98214
G1 X108.341 Y105.887 E20.00109
G1 X107.888 Y106.248 E20.02036
G1 X107.424 Y106.577 E20.03927
G1 X106.944 Y106.873 E20.05803
G1 X106.432 Y107.149 E20.07738
G1 X105.918 Y107.384 E20.09617
G1 X105.37 Y107.596 E20.11572
