;FLAVOR:Marlin
;TIME:3089
;Filament used: 3.33112m
;Layer height: 0.2
;MINX:73.617
;MINY:73.616
;MINZ:0.2
;MAXX:136.383
;MAXY:136.384
;MAXZ:25
;Generated with Cura_SteamEngine main
M140 S60
M105
M190 S60
M104 S200
M105
M109 S200
M82 ;absolute extrusion mode
G21 ;metric values
G90 ;absolute positioning
M82 ;set extruder to absolute mode
M107 ;start with the fan off
G28 X0 Y0 ;move X/Y to min endstops
G28 Z0 ;move Z to min endstops
G1 Z15.0 F100 ;move the platform down 15mm
G92 E0 ;zero the extruded length
G1 F200 E3 ;extrude 3mm of feed stock
G92 E0 ;zero the extruded length again
G1 F100
G0 Y20 F100
M117 Printing...
G5
G92 E0
G92 E0
G1 F2400 E-6
;LAYER_COUNT:125
;LAYER:0
M107
M204 S3000
M205 X10 Y10
G1 F600 Z0.275
G0 F3000 X82.501 Y83.119 Z0.275
G1 F600 Z0.2
G0 F3000 X75.708 Y93.732
M204 S1800
M205 X8 Y8
;TYPE:SKIRT
G1 F2400 E0
G1 X76.085 Y92.795 E0.04703
G1 X76.456 Y91.953 E0.08987
G1 X76.864 Y91.095 E0.13411
G1 X77.306 Y90.234 E0.17918
G1 X77.764 Y89.404 E0.22332
G1 X78.267 Y88.558 E0.26915
G1 X78.753 Y87.795 E0.31127
G1 X79.396 Y86.854 E0.36434
G1 X79.806 Y86.287 E0.39693
G1 X80.587 Y85.28 E0.45627
G1 X81.083 Y84.679 E0.49255
G1 X81.934 Y83.719 E0.55229
G1 X82.501 Y83.119 E0.59073
G1 X83.129 Y82.492 E0.63205
G1 X83.812 Y81.848 E0.67576
G1 X84.73 Y81.041 E0.73267
G1 X85.132 Y80.706 E0.75704
G1 X86.297 Y79.798 E0.82582
G1 X86.88 Y79.376 E0.85933
G1 X87.861 Y78.709 E0.91457
G1 X88.387 Y78.373 E0.94363
G1 X89.439 Y77.744 E1.00071
G1 X90.055 Y77.404 E1.03347
G1 X91.027 Y76.9 E1.08445
G1 X91.658 Y76.594 E1.11711
G1 X92.989 Y76.005 E1.18488
G1 X93.714 Y75.715 E1.22124
G1 X94.563 Y75.402 E1.26337
G1 X95.263 Y75.164 E1.2978
G1 X96.459 Y74.801 E1.356
G1 X97.199 Y74.601 E1.3917
G1 X98.479 Y74.302 E1.4529
G1 X99.309 Y74.137 E1.49231
G1 X100.193 Y73.987 E1.53406
G1 X100.996 Y73.873 E1.57182
G1 X102.29 Y73.732 E1.63243
G1 X102.844 Y73.689 E1.65831
G1 X104.285 Y73.624 E1.72548
G1 X105.059 Y73.616 E1.76152
G1 X105.983 Y73.632 E1.80455
G1 X106.82 Y73.668 E1.84356
G1 X108.004 Y73.758 E1.89885
G1 X108.801 Y73.846 E1.93619
G1 X109.691 Y73.968 E1.97802
G1 X110.686 Y74.136 E2.02501
G1 X111.801 Y74.361 E2.07797
G1 X112.385 Y74.496 E2.10588
G1 X113.497 Y74.788 E2.15942
G1 X114.372 Y75.048 E2.20192
G1 X115.351 Y75.372 E2.24994
G1 X116.06 Y75.628 E2.28504
G1 X117.12 Y76.05 E2.33816
G1 X117.947 Y76.412 E2.3802
G1 X118.971 Y76.899 E2.433
G1 X119.714 Y77.279 E2.47186
G1 X120.648 Y77.795 E2.52155
G1 X121.334 Y78.201 E2.55866
G1 X122.192 Y78.744 E2.60595
G1 X122.873 Y79.202 E2.64416
G1 X123.991 Y80.013 E2.70847
G1 X124.541 Y80.443 E2.74098
G1 X125.402 Y81.155 E2.79301
G1 X126.174 Y81.837 E2.84097
G1 X126.802 Y82.425 E2.88103
G1 X127.319 Y82.936 E2.91488
G1 X128.329 Y84.008 E2.98346
G1 X128.737 Y84.469 E3.01213
G1 X129.546 Y85.441 E3.07101
G1 X129.977 Y85.998 E3.10381
G1 X130.685 Y86.968 E3.15973
G1 X131.125 Y87.613 E3.19608
G1 X131.827 Y88.711 E3.25677
G1 X132.186 Y89.319 E3.28964
G1 X132.65 Y90.153 E3.33408
G1 X133.012 Y90.847 E3.37053
G1 X133.529 Y91.921 E3.42604
G1 X133.924 Y92.819 E3.47172
G1 X134.243 Y93.605 E3.51121
G1 X134.591 Y94.54 E3.55767
G1 X134.904 Y95.474 E3.60354
G1 X135.14 Y96.254 E3.64148
G1 X135.486 Y97.549 E3.7039
G1 X135.653 Y98.274 E3.73854
G1 X135.897 Y99.491 E3.79634
G1 X136.01 Y100.174 E3.82858
G1 X136.147 Y101.157 E3.87479
G1 X136.252 Y102.138 E3.92073
G1 X136.336 Y103.271 E3.97363
G1 X136.369 Y104.058 E4.01031
G1 X136.383 Y105.214 E4.06414
G1 X136.367 Y106.06 E4.10354
G1 X136.319 Y107.039 E4.14918
G1 X136.255 Y107.857 E4.18739
G1 X136.144 Y108.885 E4.23554
G1 X136.06 Y109.508 E4.26481
G1 X135.861 Y110.708 E4.32145
G1 X135.689 Y111.571 E4.36242
G1 X135.446 Y112.61 E4.41211
G1 X135.265 Y113.305 E4.44555
G1 X134.893 Y114.555 E4.50628
G1 X134.631 Y115.343 E4.54495
G1 X134.292 Y116.268 E4.59082
G1 X133.915 Y117.205 E4.63785
G1 X133.544 Y118.047 E4.68069
G1 X133.136 Y118.905 E4.72493
G1 X132.694 Y119.766 E4.77
G1 X132.236 Y120.596 E4.81414
G1 X131.733 Y121.442 E4.85997
G1 X131.247 Y122.205 E4.9021
G1 X130.604 Y123.146 E4.95516
G1 X130.194 Y123.713 E4.98775
G1 X129.285 Y124.879 E5.05659
G1 X128.803 Y125.454 E5.09153
G1 X128.186 Y126.15 E5.13484
G1 X127.646 Y126.729 E5.1717
G1 X126.871 Y127.508 E5.22287
G1 X126.188 Y128.152 E5.26658
G1 X125.27 Y128.959 E5.3235
G1 X124.868 Y129.294 E5.34786
G1 X123.703 Y130.202 E5.41664
G1 X123.12 Y130.624 E5.45015
G1 X122.139 Y131.291 E5.50539
G1 X121.613 Y131.627 E5.53445
G1 X120.561 Y132.256 E5.59153
G1 X119.945 Y132.596 E5.62429
G1 X118.973 Y133.1 E5.67527
G1 X118.342 Y133.406 E5.70793
G1 X117.011 Y133.995 E5.7757
G1 X116.286 Y134.285 E5.81206
G1 X115.437 Y134.598 E5.8542
G1 X114.737 Y134.836 E5.88862
G1 X113.541 Y135.199 E5.94682
G1 X112.801 Y135.399 E5.98252
G1 X111.521 Y135.698 E6.04372
G1 X110.691 Y135.863 E6.08313
G1 X109.807 Y136.013 E6.12488
G1 X109.004 Y136.127 E6.16264
G1 X107.71 Y136.268 E6.22326
G1 X107.156 Y136.311 E6.24913
G1 X105.71 Y136.376 E6.31653
G1 X104.941 Y136.384 E6.35234
G1 X104.017 Y136.368 E6.39537
G1 X103.18 Y136.332 E6.43438
G1 X101.996 Y136.242 E6.48967
G1 X101.199 Y136.154 E6.52701
G1 X100.309 Y136.032 E6.56884
G1 X99.314 Y135.864 E6.61583
G1 X98.39 Y135.68 E6.6597
G1 X97.41 Y135.453 E6.70654
G1 X96.502 Y135.212 E6.75028
G1 X95.628 Y134.952 E6.79274
G1 X94.649 Y134.628 E6.84076
G1 X93.749 Y134.299 E6.88538
G1 X92.694 Y133.872 E6.93838
G1 X92.051 Y133.587 E6.97113
G1 X91.029 Y133.101 E7.02382
G1 X90.105 Y132.624 E7.07224
G1 X89.178 Y132.105 E7.12171
G1 X88.666 Y131.799 E7.14949
G1 X87.808 Y131.256 E7.19677
G1 X87.123 Y130.795 E7.23521
G1 X86.003 Y129.983 E7.29963
G1 X85.458 Y129.556 E7.33187
G1 X84.6 Y128.847 E7.3837
G1 X83.826 Y128.163 E7.43179
G1 X83.198 Y127.575 E7.47185
G1 X82.538 Y126.917 E7.51525
G1 X81.671 Y125.992 E7.57428
G1 X81.263 Y125.531 E7.60295
G1 X80.584 Y124.72 E7.6522
G1 X80.021 Y124 E7.69476
G1 X79.425 Y123.187 E7.7417
G1 X78.873 Y122.385 E7.78703
G1 X78.288 Y121.475 E7.83741
G1 X77.896 Y120.823 E7.87283
G1 X77.35 Y119.846 E7.92495
G1 X76.988 Y119.153 E7.96135
G1 X76.471 Y118.079 E8.01686
G1 X76.076 Y117.181 E8.06254
G1 X75.757 Y116.395 E8.10204
G1 X75.402 Y115.441 E8.14943
G1 X75.111 Y114.572 E8.19211
G1 X74.86 Y113.746 E8.23231
G1 X74.514 Y112.451 E8.29472
G1 X74.347 Y111.726 E8.32936
G1 X74.103 Y110.507 E8.38725
G1 X73.99 Y109.826 E8.4194
G1 X73.853 Y108.844 E8.46556
G1 X73.764 Y108.041 E8.50318
G1 X73.676 Y106.921 E8.5555
G1 X73.631 Y105.937 E8.60136
G1 X73.617 Y104.786 E8.65496
G1 X73.633 Y103.94 E8.69436
G1 X73.681 Y102.961 E8.74001
G1 X73.745 Y102.143 E8.77821
G1 X73.834 Y101.299 E8.81773
G1 X73.943 Y100.476 E8.85639
G1 X74.139 Y99.292 E8.91227
G1 X74.265 Y98.644 E8.94301
G1 X74.574 Y97.311 E9.00672
G1 X74.746 Y96.655 E9.0383
G1 X75.107 Y95.443 E9.09719
G1 X75.369 Y94.657 E9.13577
G1 X75.708 Y93.732 E9.18164
M204 S3000
M205 X10 Y10
G1 F2400 E3.18164
G0 F3000 X74.737 Y104.804
M204 S1800
M205 X8 Y8
G1 F2400 E9.18164
G1 X74.752 Y103.992 E9.21946
G1 X74.798 Y103.045 E9.26361
G1 X74.859 Y102.26 E9.30027
G1 X74.948 Y101.416 E9.33979
G1 X75.078 Y100.457 E9.38485
G1 X75.243 Y99.478 E9.43108
G1 X75.363 Y98.861 E9.46035
G1 X75.664 Y97.567 E9.52221
G1 X75.828 Y96.945 E9.55216
G1 X76.234 Y95.596 E9.61776
G1 X76.478 Y94.879 E9.65303
G1 X76.814 Y93.974 E9.69798
G1 X77.11 Y93.247 E9.73453
G1 X77.543 Y92.269 E9.78433
G1 X77.788 Y91.753 E9.81093
G1 X78.373 Y90.613 E9.8706
G1 X78.638 Y90.131 E9.89621
G1 X79.23 Y89.131 E9.95032
G1 X79.678 Y88.427 E9.98918
G1 X80.416 Y87.351 E10.04993
G1 X80.81 Y86.816 E10.08087
G1 X81.47 Y85.969 E10.13087
G1 X81.944 Y85.396 E10.1655
G1 X82.751 Y84.485 E10.22217
G1 X83.292 Y83.912 E10.25886
G1 X83.92 Y83.285 E10.30018
G1 X84.416 Y82.813 E10.33207
G1 X85.334 Y81.999 E10.3892
G1 X85.983 Y81.458 E10.42854
G1 X86.826 Y80.801 E10.47831
G1 X87.377 Y80.396 E10.51015
G1 X88.464 Y79.653 E10.57146
G1 X88.99 Y79.317 E10.60052
G1 X89.983 Y78.723 E10.6544
G1 X90.432 Y78.473 E10.67833
G1 X91.687 Y77.822 E10.74416
G1 X92.143 Y77.603 E10.76772
G1 X93.409 Y77.043 E10.83218
G1 X93.948 Y76.825 E10.85925
G1 X94.951 Y76.453 E10.90906
G1 X95.62 Y76.226 E10.94196
G1 X96.95 Y75.826 E11.00663
G1 X97.633 Y75.647 E11.03951
G1 X98.542 Y75.434 E11.08298
G1 X99.497 Y75.241 E11.12835
G1 X100.381 Y75.091 E11.1701
G1 X101.15 Y74.982 E11.20627
G1 X102.213 Y74.864 E11.25607
G1 X103.099 Y74.795 E11.29745
G1 X104.134 Y74.748 E11.34569
G1 X105.039 Y74.736 E11.38784
G1 X105.963 Y74.752 E11.43087
G1 X106.93 Y74.796 E11.47594
G1 X107.727 Y74.857 E11.51316
G1 X108.649 Y74.956 E11.55634
G1 X109.704 Y75.103 E11.60594
G1 X110.318 Y75.207 E11.63494
G1 X111.391 Y75.419 E11.68587
G1 X112.298 Y75.629 E11.72922
G1 X113.359 Y75.913 E11.78036
G1 X114.02 Y76.111 E11.81249
G1 X114.999 Y76.435 E11.86051
G1 X115.834 Y76.74 E11.9019
G1 X116.703 Y77.089 E11.94551
G1 X117.318 Y77.356 E11.97673
G1 X118.49 Y77.911 E12.03711
G1 X119.2 Y78.274 E12.07424
G1 X120.104 Y78.774 E12.12235
G1 X120.76 Y79.163 E12.15786
G1 X121.718 Y79.773 E12.21074
G1 X122.385 Y80.227 E12.24831
G1 X123.172 Y80.798 E12.29359
G1 X123.696 Y81.201 E12.32437
G1 X124.822 Y82.132 E12.3924
G1 X125.299 Y82.554 E12.42206
G1 X126.037 Y83.243 E12.46907
G1 X126.645 Y83.849 E12.50904
G1 X127.381 Y84.631 E12.55905
G1 X128 Y85.33 E12.60252
G1 X128.556 Y85.997 E12.64296
G1 X129.074 Y86.66 E12.68213
G1 X129.671 Y87.474 E12.72914
G1 X130.183 Y88.219 E12.77123
G1 X130.865 Y89.284 E12.83012
G1 X131.13 Y89.729 E12.85424
G1 X131.747 Y90.839 E12.91337
G1 X132.017 Y91.361 E12.94074
G1 X132.589 Y92.558 E13.00251
G1 X132.828 Y93.102 E13.03018
G1 X133.261 Y94.17 E13.08384
G1 X133.53 Y94.898 E13.11998
G1 X133.834 Y95.804 E13.16448
G1 X134.007 Y96.365 E13.19181
G1 X134.353 Y97.636 E13.25315
G1 X134.555 Y98.497 E13.29433
G1 X134.793 Y99.679 E13.35048
G1 X134.877 Y100.174 E13.37385
G1 X135.058 Y101.476 E13.43506
G1 X135.136 Y102.223 E13.47004
G1 X135.208 Y103.164 E13.51398
G1 X135.249 Y104.074 E13.5564
G1 X135.263 Y105.196 E13.60865
G1 X135.248 Y106.008 E13.64646
G1 X135.202 Y106.955 E13.69061
G1 X135.141 Y107.74 E13.72728
G1 X135.034 Y108.736 E13.77392
G1 X134.924 Y109.53 E13.81124
G1 X134.757 Y110.521 E13.85804
G1 X134.637 Y111.139 E13.88735
G1 X134.319 Y112.501 E13.95248
G1 X134.134 Y113.191 E13.98574
G1 X133.821 Y114.233 E14.03641
G1 X133.522 Y115.121 E14.08004
G1 X133.186 Y116.026 E14.12499
G1 X132.89 Y116.753 E14.16154
G1 X132.457 Y117.731 E14.21134
G1 X132.212 Y118.247 E14.23794
G1 X131.627 Y119.387 E14.2976
G1 X131.362 Y119.869 E14.32322
G1 X130.77 Y120.869 E14.37733
G1 X130.322 Y121.573 E14.41618
G1 X129.584 Y122.649 E14.47694
G1 X129.19 Y123.184 E14.50788
G1 X128.53 Y124.031 E14.55788
G1 X127.965 Y124.711 E14.59905
G1 X127.348 Y125.407 E14.64236
G1 X126.708 Y126.088 E14.68587
G1 X126.08 Y126.715 E14.72719
G1 X125.584 Y127.187 E14.75908
G1 X124.666 Y128.001 E14.81621
G1 X124.017 Y128.542 E14.85555
G1 X123.174 Y129.199 E14.90532
G1 X122.623 Y129.604 E14.93716
G1 X121.536 Y130.347 E14.99847
G1 X121.01 Y130.683 E15.02753
G1 X120.017 Y131.277 E15.08141
G1 X119.568 Y131.527 E15.10534
G1 X118.313 Y132.178 E15.17117
G1 X117.857 Y132.397 E15.19473
G1 X116.591 Y132.957 E15.25919
G1 X116.052 Y133.175 E15.28626
G1 X115.049 Y133.547 E15.33607
G1 X114.38 Y133.774 E15.36897
G1 X113.05 Y134.174 E15.43364
G1 X112.367 Y134.353 E15.46652
G1 X111.458 Y134.566 E15.50999
G1 X110.503 Y134.759 E15.55536
G1 X109.619 Y134.909 E15.59711
G1 X108.85 Y135.018 E15.63327
G1 X107.787 Y135.136 E15.68308
G1 X106.899 Y135.205 E15.72455
G1 X105.858 Y135.252 E15.77307
G1 X104.961 Y135.264 E15.81484
G1 X104.037 Y135.248 E15.85788
G1 X103.07 Y135.204 E15.90295
G1 X102.273 Y135.143 E15.94017
G1 X101.351 Y135.044 E15.98335
G1 X100.296 Y134.897 E16.03295
G1 X99.682 Y134.793 E16.06195
G1 X98.45 Y134.547 E16.12045
G1 X97.697 Y134.37 E16.15647
G1 X96.789 Y134.129 E16.20021
G1 X95.98 Y133.889 E16.2395
G1 X95.001 Y133.565 E16.28752
G1 X94.166 Y133.26 E16.32891
G1 X93.297 Y132.911 E16.37252
G1 X92.532 Y132.575 E16.41143
G1 X91.357 Y132.013 E16.47208
G1 X90.649 Y131.645 E16.50923
G1 X89.894 Y131.225 E16.54946
G1 X89.24 Y130.837 E16.58487
G1 X88.28 Y130.226 E16.63786
G1 X87.615 Y129.772 E16.67535
G1 X86.489 Y128.952 E16.74021
G1 X85.178 Y127.868 E16.81942
G1 X84.701 Y127.446 E16.84908
G1 X83.843 Y126.642 E16.90383
G1 X83.47 Y126.27 E16.92836
G1 X82.619 Y125.369 E16.98607
G1 X82 Y124.67 E17.02954
G1 X81.444 Y124.003 E17.06998
G1 X81.021 Y123.465 E17.10185
G1 X80.239 Y122.399 E17.16341
G1 X79.909 Y121.92 E17.19049
G1 X79.133 Y120.712 E17.25735
G1 X78.859 Y120.251 E17.28232
G1 X78.253 Y119.161 E17.34039
G1 X77.983 Y118.639 E17.36776
G1 X77.411 Y117.442 E17.42953
G1 X77.172 Y116.898 E17.4572
G1 X76.74 Y115.834 E17.51067
G1 X76.464 Y115.086 E17.5478
G1 X76.173 Y114.217 E17.59047
G1 X75.941 Y113.454 E17.6276
G1 X75.647 Y112.365 E17.68013
G1 X75.445 Y111.503 E17.72135
G1 X75.207 Y110.32 E17.77754
G1 X75.123 Y109.824 E17.80097
G1 X74.942 Y108.521 E17.86222
G1 X74.863 Y107.764 E17.89766
G1 X74.792 Y106.836 E17.941
G1 X74.751 Y105.92 E17.9837
G1 X74.737 Y104.804 E18.03567
M204 S3000
M205 X10 Y10
G0 F3000 X74.177 Y104.795
M204 S1800
M205 X8 Y8
G1 F2400 X74.192 Y103.966 E18.07427
G1 X74.239 Y103.003 E18.11917
G1 X74.302 Y102.202 E18.15658
G1 X74.391 Y101.358 E18.1961
G1 X74.526 Y100.364 E18.24281
G1 X74.691 Y99.385 E18.28904
G1 X74.814 Y98.752 E18.31906
G1 X75.162 Y97.268 E18.39004
G1 X75.336 Y96.625 E18.42106
G1 X75.643 Y95.604 E18.4707
G1 X75.899 Y94.836 E18.5084
G1 X76.233 Y93.926 E18.55354
G1 X76.525 Y93.194 E18.59023
G1 X77.037 Y92.029 E18.64949
G1 X77.282 Y91.513 E18.67609
G1 X77.882 Y90.343 E18.73731
G1 X78.245 Y89.69 E18.7721
G1 X78.748 Y88.844 E18.81793
G1 X79.215 Y88.111 E18.8584
G1 X79.858 Y87.17 E18.91147
G1 X80.368 Y86.471 E18.95176
G1 X81.028 Y85.624 E19.00176
G1 X81.514 Y85.037 E19.03725
G1 X82.234 Y84.221 E19.08792
G1 X82.897 Y83.515 E19.13302
G1 X83.636 Y82.78 E19.18155
G1 X84.031 Y82.406 E19.20688
G1 X85.088 Y81.472 E19.27256
G1 X85.639 Y81.017 E19.30583
G1 X86.628 Y80.25 E19.36411
G1 X87.196 Y79.838 E19.39679
G1 X88.162 Y79.181 E19.45118
G1 X88.832 Y78.756 E19.48813
G1 X89.552 Y78.325 E19.5272
G1 X90.16 Y77.984 E19.55966
G1 X91.445 Y77.318 E19.62706
G1 X92.065 Y77.023 E19.65903
G1 X93.199 Y76.524 E19.71672
G1 X93.738 Y76.306 E19.74379
G1 X94.918 Y75.871 E19.80235
G1 X95.619 Y75.638 E19.83675
G1 X96.62 Y75.337 E19.88542
G1 X97.342 Y75.143 E19.92023
G1 X98.415 Y74.889 E19.97158
G1 X99.403 Y74.689 E20.01852
G1 X100.287 Y74.539 E20.06027
G1 X101.244 Y74.406 E20.10526
G1 X102.153 Y74.307 E20.14783
G1 X103.074 Y74.236 E20.19085
G1 X104.109 Y74.189 E20.23909
G1 X105.049 Y74.176 E20.28287
G1 X106.139 Y74.197 E20.33363
G1 X106.973 Y74.238 E20.37251
G1 X107.945 Y74.315 E20.41791
G1 X108.725 Y74.401 E20.45445
G1 X109.797 Y74.551 E20.50486
G1 X110.577 Y74.685 E20.54171
G1 X111.501 Y74.869 E20.58558
G1 X112.442 Y75.087 E20.63056
G1 X113.354 Y75.329 E20.67449
G1 X114.196 Y75.58 E20.7154
G1 X115.342 Y75.962 E20.77165
G1 X116.042 Y76.221 E20.80641
G1 X117.08 Y76.64 E20.85853
G1 X117.543 Y76.843 E20.88207
G1 X118.73 Y77.405 E20.94323
G1 X119.457 Y77.777 E20.98125
G1 X120.535 Y78.376 E21.03868
G1 X121.185 Y78.767 E21.074
G1 X121.891 Y79.216 E21.11296
G1 X122.714 Y79.774 E21.15926
G1 X123.501 Y80.345 E21.20453
G1 X124.184 Y80.874 E21.24476
G1 X125.045 Y81.586 E21.29678
G1 X125.792 Y82.246 E21.3432
G1 X126.42 Y82.834 E21.38326
G1 X127.053 Y83.465 E21.42488
G1 X127.789 Y84.247 E21.47488
G1 X128.43 Y84.972 E21.51994
G1 X128.986 Y85.639 E21.56038
G1 X129.525 Y86.329 E21.60115
G1 X130.224 Y87.286 E21.65633
G1 X130.654 Y87.916 E21.69185
G1 X131.24 Y88.827 E21.74229
G1 X131.611 Y89.443 E21.77577
G1 X132.244 Y90.582 E21.83645
G1 X132.596 Y91.268 E21.87235
G1 X133.024 Y92.163 E21.91854
G1 X133.341 Y92.877 E21.95492
G1 X133.724 Y93.816 E22.00214
G1 X134 Y94.55 E22.03866
G1 X134.369 Y95.639 E22.0922
G1 X134.542 Y96.2 E22.11953
G1 X134.941 Y97.677 E22.19077
G1 X135.067 Y98.214 E22.21646
G1 X135.31 Y99.399 E22.27278
G1 X135.429 Y100.08 E22.30497
G1 X135.615 Y101.416 E22.36778
G1 X135.678 Y102.002 E22.39523
G1 X135.766 Y103.121 E22.44749
G1 X135.804 Y103.881 E22.48293
G1 X135.823 Y105.205 E22.54458
G1 X135.808 Y106.034 E22.58319
G1 X135.761 Y106.997 E22.62809
