;FLAVOR:Marlin
;TIME:3205
;Filament used: 3.28841m
;Layer height: 0.2
;MINX:73.617
;MINY:73.616
;MINZ:0.2
;MAXX:136.383
;MAXY:136.384
;MAXZ:24.4
;Generated with Cura_SteamEngine main
M140 S60
M105
M190 S60
M104 S200
M105
M109 S200
M82 ;absolute extrusion mode
G21 ;metric values
G90 ;absolute positioning
M82 ;set extruder to absolute mode
M107 ;start with the fan off
G28 X0 Y0 ;move X/Y to min endstops
G28 Z0 ;move Z to min endstops
G1 Z15.0 F100 ;move the platform down 15mm
G92 E0 ;zero the extruded length
G1 F200 E3 ;extrude 3mm of feed stock
G92 E0 ;zero the extruded length again
G1 F100
G0 Y20 F100
M117 Printing...
G5
G92 E0
G92 E0
G1 F2400 E-6
;LAYER_COUNT:122
;LAYER:0
M107
M204 S3000
M205 X10 Y10
G1 F600 Z0.275
G0 F3000 X83.142 Y82.482 Z0.275
G1 F600 Z0.2
G0 F3000 X76.51 Y91.838
M204 S1800
M205 X8 Y8
;TYPE:SKIRT
G1 F2400 E0
G1 X76.849 Y91.125 E0.03676
G1 X77.366 Y90.123 E0.08926
G1 X77.835 Y89.283 E0.13406
G1 X78.437 Y88.284 E0.18837
G1 X78.885 Y87.592 E0.22676
G1 X79.354 Y86.907 E0.26541
G1 X79.942 Y86.102 E0.31183
G1 X80.509 Y85.374 E0.3548
G1 X81.087 Y84.676 E0.397
G1 X81.856 Y83.803 E0.45117
G1 X82.373 Y83.253 E0.48632
G1 X83.142 Y82.482 E0.53703
G1 X83.866 Y81.799 E0.58337
G1 X84.552 Y81.191 E0.62606
G1 X85.157 Y80.685 E0.66278
G1 X86.183 Y79.882 E0.72345
G1 X86.791 Y79.439 E0.75848
G1 X87.574 Y78.899 E0.80277
G1 X88.345 Y78.402 E0.84548
G1 X89.5 Y77.712 E0.90813
G1 X90.139 Y77.359 E0.94212
G1 X91.032 Y76.896 E0.98896
G1 X91.904 Y76.479 E1.03397
G1 X92.777 Y76.094 E1.0784
G1 X93.519 Y75.791 E1.11572
G1 X94.827 Y75.309 E1.18063
G1 X95.469 Y75.098 E1.21209
G1 X96.436 Y74.807 E1.25912
G1 X97.401 Y74.55 E1.30562
G1 X98.266 Y74.347 E1.34699
G1 X99.034 Y74.188 E1.38351
G1 X100.4 Y73.955 E1.44803
G1 X101.211 Y73.845 E1.48614
G1 X102.051 Y73.754 E1.52549
G1 X103.049 Y73.677 E1.57209
G1 X104.285 Y73.624 E1.6297
G1 X105.052 Y73.616 E1.66542
G1 X106.168 Y73.637 E1.71739
G1 X106.838 Y73.669 E1.74863
G1 X108.02 Y73.759 E1.80382
G1 X108.808 Y73.847 E1.84075
G1 X109.698 Y73.969 E1.88257
G1 X110.481 Y74.097 E1.91952
G1 X111.583 Y74.314 E1.97182
G1 X112.546 Y74.536 E2.01784
G1 X113.513 Y74.792 E2.06441
G1 X114.19 Y74.99 E2.09726
G1 X115.524 Y75.432 E2.1627
G1 X116.269 Y75.708 E2.19969
G1 X117.102 Y76.043 E2.2415
G1 X117.808 Y76.348 E2.27731
G1 X119.077 Y76.949 E2.34269
G1 X119.566 Y77.2 E2.36828
G1 X120.687 Y77.82 E2.42793
G1 X121.321 Y78.195 E2.46223
G1 X122.378 Y78.868 E2.52058
G1 X123.001 Y79.292 E2.55567
G1 X124.068 Y80.073 E2.61724
G1 X124.721 Y80.586 E2.65591
G1 X125.532 Y81.263 E2.7051
G1 X126.081 Y81.752 E2.73934
G1 X126.781 Y82.407 E2.78398
G1 X127.51 Y83.135 E2.83195
G1 X128.371 Y84.053 E2.89055
G1 X128.72 Y84.45 E2.91517
G1 X129.475 Y85.355 E2.97005
G1 X130.08 Y86.133 E3.01594
G1 X130.717 Y87.008 E3.06634
G1 X131.029 Y87.464 E3.09206
G1 X131.687 Y88.484 E3.14858
G1 X132.112 Y89.193 E3.18707
G1 X132.601 Y90.064 E3.23359
G1 X133.064 Y90.951 E3.28018
G1 X133.478 Y91.811 E3.32462
G1 X133.747 Y92.41 E3.3552
G1 X134.326 Y93.827 E3.42647
G1 X134.606 Y94.588 E3.46423
G1 X134.919 Y95.524 E3.51019
G1 X135.182 Y96.399 E3.55273
G1 X135.447 Y97.392 E3.60059
G1 X135.621 Y98.125 E3.63567
G1 X135.885 Y99.429 E3.69762
G1 X136.018 Y100.224 E3.73515
G1 X136.15 Y101.179 E3.78005
G1 X136.234 Y101.935 E3.81546
G1 X136.336 Y103.266 E3.87762
G1 X136.369 Y104.053 E3.9143
G1 X136.383 Y105.216 E3.96846
G1 X136.373 Y105.843 E3.99766
G1 X136.317 Y107.075 E4.05508
G1 X136.256 Y107.848 E4.09119
G1 X136.136 Y108.95 E4.14281
G1 X136.036 Y109.658 E4.1761
G1 X135.846 Y110.778 E4.229
G1 X135.699 Y111.527 E4.26454
G1 X135.404 Y112.788 E4.32484
G1 X135.201 Y113.539 E4.36107
G1 X134.959 Y114.353 E4.40061
G1 X134.713 Y115.105 E4.43745
G1 X134.266 Y116.329 E4.49813
G1 X134.007 Y116.981 E4.5308
G1 X133.491 Y118.16 E4.59072
G1 X133.075 Y119.026 E4.63546
G1 X132.539 Y120.053 E4.6894
G1 X132.165 Y120.717 E4.72489
G1 X131.567 Y121.71 E4.77886
G1 X131.128 Y122.389 E4.81651
G1 X130.646 Y123.093 E4.85624
G1 X130.058 Y123.898 E4.90266
G1 X129.491 Y124.626 E4.94563
G1 X129.047 Y125.168 E4.97825
G1 X128.144 Y126.197 E5.042
G1 X127.627 Y126.747 E5.07715
G1 X126.858 Y127.518 E5.12786
G1 X126.134 Y128.201 E5.1742
G1 X125.448 Y128.809 E5.21689
G1 X124.843 Y129.315 E5.25361
G1 X123.817 Y130.118 E5.31428
G1 X123.209 Y130.561 E5.34931
G1 X122.426 Y131.101 E5.3936
G1 X121.655 Y131.598 E5.43631
G1 X120.5 Y132.288 E5.49896
G1 X119.861 Y132.641 E5.53295
G1 X118.968 Y133.104 E5.57979
G1 X118.096 Y133.521 E5.6248
G1 X117.223 Y133.906 E5.66923
G1 X116.481 Y134.209 E5.70655
G1 X115.173 Y134.691 E5.77146
G1 X114.531 Y134.902 E5.80292
G1 X113.564 Y135.193 E5.84995
G1 X112.599 Y135.45 E5.89645
G1 X111.734 Y135.653 E5.93782
G1 X110.966 Y135.812 E5.97434
G1 X109.6 Y136.045 E6.03886
G1 X108.789 Y136.155 E6.07697
G1 X107.949 Y136.246 E6.11632
G1 X106.95 Y136.323 E6.16297
G1 X105.71 Y136.376 E6.22076
G1 X104.947 Y136.384 E6.25629
G1 X103.848 Y136.363 E6.30748
G1 X102.987 Y136.32 E6.34762
G1 X101.98 Y136.241 E6.39465
G1 X101.192 Y136.153 E6.43157
G1 X100.302 Y136.031 E6.4734
G1 X99.318 Y135.866 E6.51986
G1 X98.419 Y135.687 E6.56255
G1 X97.454 Y135.464 E6.60866
G1 X96.487 Y135.208 E6.65524
G1 X95.81 Y135.01 E6.68809
G1 X94.476 Y134.568 E6.75352
G1 X93.731 Y134.292 E6.79052
G1 X92.728 Y133.886 E6.8409
G1 X92.189 Y133.651 E6.86828
G1 X90.923 Y133.051 E6.93352
G1 X90.434 Y132.8 E6.95911
G1 X89.313 Y132.18 E7.01876
G1 X88.504 Y131.697 E7.06264
G1 X87.449 Y131.018 E7.12106
G1 X86.995 Y130.706 E7.14671
G1 X85.93 Y129.926 E7.20818
G1 X85.279 Y129.414 E7.24674
G1 X84.625 Y128.872 E7.28629
G1 X84.047 Y128.365 E7.3221
G1 X83.072 Y127.451 E7.38432
G1 X82.483 Y126.859 E7.42321
G1 X81.776 Y126.108 E7.47124
G1 X81.156 Y125.405 E7.51488
G1 X80.523 Y124.643 E7.56101
G1 X80.03 Y124.014 E7.59823
G1 X79.4 Y123.157 E7.64775
G1 X78.873 Y122.389 E7.69112
G1 X78.41 Y121.671 E7.73091
G1 X77.99 Y120.981 E7.76852
G1 X77.399 Y119.935 E7.82446
G1 X76.936 Y119.049 E7.87101
G1 X76.522 Y118.189 E7.91546
G1 X76.253 Y117.59 E7.94603
G1 X75.671 Y116.165 E8.01771
G1 X75.391 Y115.401 E8.05559
G1 X75.022 Y114.29 E8.11011
G1 X74.871 Y113.788 E8.13452
G1 X74.553 Y112.607 E8.19147
G1 X74.375 Y111.855 E8.22745
G1 X74.114 Y110.562 E8.28887
G1 X73.978 Y109.747 E8.32735
G1 X73.85 Y108.821 E8.37088
G1 X73.764 Y108.045 E8.40723
G1 X73.676 Y106.925 E8.45954
G1 X73.631 Y105.936 E8.50564
G1 X73.617 Y104.784 E8.55929
G1 X73.627 Y104.157 E8.58849
G1 X73.683 Y102.925 E8.64591
G1 X73.744 Y102.152 E8.68202
G1 X73.864 Y101.05 E8.73364
G1 X73.964 Y100.342 E8.76693
G1 X74.188 Y99.037 E8.82859
G1 X74.306 Y98.447 E8.8566
G1 X74.596 Y97.212 E8.91568
G1 X74.799 Y96.461 E8.9519
G1 X75.041 Y95.647 E8.99144
G1 X75.285 Y94.899 E9.02808
G1 X75.801 Y93.497 E9.09764
G1 X76.079 Y92.814 E9.13198
G1 X76.51 Y91.838 E9.18166
M204 S3000
M205 X10 Y10
G1 F2400 E3.18166
G0 F3000 X74.419 Y101.125
M204 S1800
M205 X8 Y8
G1 F2400 E9.18166
G1 X74.516 Y100.435 E9.21411
G1 X74.706 Y99.315 E9.267
G1 X74.855 Y98.557 E9.30297
G1 X75.096 Y97.522 E9.35246
G1 X75.336 Y96.621 E9.39587
G1 X75.578 Y95.807 E9.43542
G1 X75.884 Y94.883 E9.48074
G1 X76.321 Y93.705 E9.53925
G1 X76.592 Y93.04 E9.57268
G1 X77.102 Y91.892 E9.63118
G1 X77.433 Y91.21 E9.66648
G1 X77.863 Y90.381 E9.70996
G1 X78.229 Y89.721 E9.7451
G1 X78.908 Y88.587 E9.80665
G1 X79.347 Y87.909 E9.84426
G1 X79.917 Y87.081 E9.89107
G1 X80.273 Y86.593 E9.91919
G1 X81.058 Y85.585 E9.97869
G1 X81.508 Y85.045 E10.01142
G1 X82.266 Y84.184 E10.06483
G1 X82.769 Y83.649 E10.09902
G1 X83.538 Y82.878 E10.14973
G1 X84.237 Y82.219 E10.19446
G1 X85.067 Y81.487 E10.24599
G1 X85.514 Y81.116 E10.27304
G1 X86.515 Y80.333 E10.33222
G1 X87.108 Y79.9 E10.36641
G1 X87.891 Y79.36 E10.4107
G1 X88.471 Y78.983 E10.44291
G1 X89.612 Y78.295 E10.50495
G1 X90.397 Y77.856 E10.54683
G1 X91.29 Y77.393 E10.59367
G1 X92.129 Y76.992 E10.63697
G1 X93.173 Y76.534 E10.69006
G1 X93.728 Y76.31 E10.71793
G1 X95.004 Y75.841 E10.78123
G1 X95.63 Y75.635 E10.81191
G1 X96.779 Y75.292 E10.86775
G1 X97.529 Y75.095 E10.90386
G1 X98.394 Y74.892 E10.94523
G1 X99.333 Y74.702 E10.98984
G1 X100.477 Y74.51 E11.04385
G1 X101.271 Y74.402 E11.08117
G1 X102.111 Y74.311 E11.12051
G1 X102.882 Y74.248 E11.15653
G1 X104.109 Y74.189 E11.21373
G1 X104.865 Y74.176 E11.24894
G1 X105.959 Y74.191 E11.29988
G1 X106.971 Y74.238 E11.34706
G1 X107.768 Y74.298 E11.38427
G1 X108.732 Y74.402 E11.42942
G1 X109.789 Y74.549 E11.47912
G1 X110.389 Y74.649 E11.50744
G1 X111.643 Y74.899 E11.56698
G1 X112.403 Y75.077 E11.60333
G1 X113.37 Y75.333 E11.6499
G1 X114.211 Y75.583 E11.69076
G1 X115.166 Y75.9 E11.73761
G1 X115.887 Y76.161 E11.77332
G1 X117.047 Y76.627 E11.83153
G1 X117.584 Y76.861 E11.8588
G1 X118.821 Y77.447 E11.92254
G1 X119.482 Y77.79 E11.95722
G1 X120.415 Y78.309 E12.00693
G1 X121.194 Y78.774 E12.04917
G1 X122.231 Y79.442 E12.10661
G1 X122.83 Y79.856 E12.14052
G1 X123.581 Y80.406 E12.18386
G1 X124.23 Y80.91 E12.22213
G1 X125.161 Y81.682 E12.27844
G1 X125.578 Y82.051 E12.30437
G1 X126.538 Y82.95 E12.36561
G1 X126.984 Y83.396 E12.39498
G1 X127.95 Y84.423 E12.46063
G1 X128.404 Y84.942 E12.49274
G1 X129.045 Y85.713 E12.53943
G1 X129.528 Y86.33 E12.57592
G1 X130.255 Y87.324 E12.63326
G1 X130.654 Y87.911 E12.66631
G1 X131.118 Y88.63 E12.70616
G1 X131.528 Y89.303 E12.74285
G1 X132.196 Y90.492 E12.80635
G1 X132.473 Y91.022 E12.8342
G1 X132.973 Y92.054 E12.8876
G1 X133.235 Y92.637 E12.91736
G1 X133.801 Y94.022 E12.98703
G1 X134.075 Y94.766 E13.02395
G1 X134.388 Y95.702 E13.0699
G1 X134.641 Y96.543 E13.1108
G1 X134.906 Y97.536 E13.15865
G1 X135.111 Y98.414 E13.20064
G1 X135.301 Y99.351 E13.24516
G1 X135.434 Y100.111 E13.28108
G1 X135.595 Y101.255 E13.33488
G1 X135.694 Y102.176 E13.37801
G1 X135.777 Y103.292 E13.43012
G1 X135.804 Y103.874 E13.45725
G1 X135.823 Y105.207 E13.51933
G1 X135.808 Y106.007 E13.55658
G1 X135.759 Y107.033 E13.60441
G1 X135.716 Y107.606 E13.63117
G1 X135.581 Y108.875 E13.69059
G1 X135.484 Y109.565 E13.72304
G1 X135.294 Y110.685 E13.77593
G1 X135.15 Y111.417 E13.81067
G1 X134.905 Y112.474 E13.8612
G1 X134.664 Y113.379 E13.9048
G1 X134.422 Y114.193 E13.94435
G1 X134.181 Y114.929 E13.98041
G1 X133.74 Y116.136 E14.04025
G1 X133.412 Y116.95 E14.08111
G1 X132.9 Y118.105 E14.13994
G1 X132.658 Y118.609 E14.16597
G1 X132.138 Y119.617 E14.21879
G1 X131.771 Y120.279 E14.25403
G1 X131.095 Y121.408 E14.31531
G1 X130.666 Y122.072 E14.35212
G1 X130.083 Y122.919 E14.4
G1 X129.727 Y123.407 E14.42812
G1 X128.946 Y124.411 E14.48735
G1 X128.501 Y124.946 E14.51976
G1 X127.849 Y125.689 E14.56579
G1 X127.371 Y126.206 E14.59857
G1 X126.462 Y127.122 E14.65866
G1 X125.763 Y127.781 E14.7034
G1 X124.933 Y128.513 E14.75493
G1 X124.486 Y128.884 E14.78198
G1 X123.485 Y129.667 E14.84115
G1 X122.892 Y130.1 E14.87534
G1 X122.109 Y130.64 E14.91963
G1 X121.529 Y131.017 E14.95184
G1 X120.388 Y131.705 E15.01389
G1 X119.603 Y132.144 E15.05577
G1 X118.71 Y132.607 E15.1026
G1 X117.871 Y133.008 E15.1459
G1 X116.827 Y133.466 E15.19899
G1 X116.272 Y133.69 E15.22686
G1 X114.996 Y134.159 E15.29016
G1 X114.37 Y134.365 E15.32085
G1 X113.221 Y134.708 E15.37668
G1 X112.471 Y134.905 E15.41279
G1 X111.606 Y135.108 E15.45416
G1 X110.667 Y135.298 E15.49877
G1 X109.523 Y135.49 E15.55279
G1 X108.729 Y135.598 E15.5901
G1 X107.889 Y135.689 E15.62944
G1 X107.118 Y135.752 E15.66546
G1 X105.883 Y135.811 E15.72304
G1 X104.956 Y135.824 E15.7662
G1 X103.874 Y135.804 E15.8166
G1 X103.029 Y135.762 E15.85599
G1 X102.232 Y135.702 E15.89321
G1 X101.268 Y135.598 E15.93836
G1 X100.206 Y135.45 E15.98828
G1 X99.428 Y135.317 E16.02504
G1 X98.529 Y135.138 E16.06772
G1 X97.597 Y134.923 E16.11226
G1 X96.63 Y134.667 E16.15884
G1 X95.789 Y134.417 E16.19969
G1 X94.834 Y134.1 E16.24655
G1 X94.113 Y133.839 E16.28225
G1 X93.107 Y133.437 E16.3327
G1 X92.246 Y133.061 E16.37644
G1 X91.179 Y132.553 E16.43147
G1 X90.518 Y132.21 E16.46615
G1 X89.585 Y131.691 E16.51586
G1 X88.806 Y131.226 E16.55811
G1 X87.924 Y130.661 E16.60688
G1 X87.312 Y130.244 E16.64136
G1 X86.275 Y129.484 E16.70123
G1 X85.637 Y128.983 E16.739
G1 X84.983 Y128.441 E16.77855
G1 X84.418 Y127.945 E16.81356
G1 X83.467 Y127.054 E16.87424
G1 X82.891 Y126.475 E16.91227
G1 X82.05 Y125.577 E16.96956
G1 X81.587 Y125.047 E17.00233
G1 X80.954 Y124.285 E17.04846
G1 X80.472 Y123.67 E17.08484
G1 X79.747 Y122.678 E17.14206
G1 X79.344 Y122.086 E17.1754
G1 X78.792 Y121.226 E17.22299
G1 X78.373 Y120.527 E17.26094
G1 X77.804 Y119.508 E17.31528
G1 X77.527 Y118.978 E17.34313
G1 X77.027 Y117.946 E17.39652
G1 X76.765 Y117.363 E17.42629
G1 X76.196 Y115.971 E17.49631
G1 X75.922 Y115.223 E17.5334
G1 X75.613 Y114.3 E17.57873
G1 X75.357 Y113.449 E17.62011
G1 X75.094 Y112.463 E17.66762
G1 X74.92 Y111.728 E17.70279
G1 X74.666 Y110.468 E17.76265
G1 X74.533 Y109.671 E17.80027
G1 X74.405 Y108.745 E17.8438
G1 X74.321 Y107.986 E17.87936
G1 X74.234 Y106.883 E17.93088
G1 X74.196 Y106.107 E17.96705
G1 X74.177 Y104.793 E18.02825
G1 X74.192 Y103.993 E18.0655
G1 X74.241 Y102.967 E18.11333
G1 X74.284 Y102.394 E18.14009
G1 X74.419 Y101.125 E18.19951
M204 S3000
M205 X10 Y10
G1 F2400 E12.19951
G0 F3000 X74.737 Y104.802
M204 S1800
M205 X8 Y8
G1 F2400 E18.19951
G1 X74.751 Y104.018 E18.23602
G1 X74.79 Y103.163 E18.27588
G1 X74.858 Y102.271 E18.31753
G1 X74.974 Y101.2 E18.3677
G1 X75.068 Y100.529 E18.39925
G1 X75.258 Y99.409 E18.45214
G1 X75.443 Y98.491 E18.49575
G1 X75.679 Y97.5 E18.54318
G1 X75.873 Y96.78 E18.57791
G1 X76.115 Y95.966 E18.61745
G1 X76.409 Y95.077 E18.66105
G1 X76.84 Y93.914 E18.7188
G1 X77.034 Y93.431 E18.74304
G1 X77.535 Y92.29 E18.80107
G1 X77.93 Y91.468 E18.84353
G1 X78.438 Y90.493 E18.89472
G1 X78.717 Y89.994 E18.92134
G1 X79.379 Y88.89 E18.98129
G1 X79.809 Y88.225 E19.01816
G1 X80.369 Y87.411 E19.06417
G1 X80.725 Y86.923 E19.09229
G1 X81.392 Y86.063 E19.14297
G1 X81.83 Y85.53 E19.1751
G1 X82.572 Y84.681 E19.2276
G1 X83.166 Y84.044 E19.26815
G1 X84.051 Y83.16 E19.3264
G1 X84.489 Y82.747 E19.35443
G1 X85.425 Y81.918 E19.41265
G1 X85.872 Y81.547 E19.4397
G1 X86.846 Y80.785 E19.49729
G1 X87.426 Y80.361 E19.53074
G1 X88.209 Y79.821 E19.57503
G1 X88.774 Y79.454 E19.6064
G1 X89.9 Y78.775 E19.66763
G1 X90.513 Y78.43 E19.70038
G1 X91.7 Y77.815 E19.76263
G1 X92.355 Y77.504 E19.7964
G1 X93.228 Y77.119 E19.84082
G1 X94.09 Y76.771 E19.88411
G1 X95.181 Y76.372 E19.9382
G1 X95.791 Y76.171 E19.96811
G1 X96.923 Y75.833 E20.02312
G1 X97.506 Y75.678 E20.05121
G1 X98.674 Y75.404 E20.10707
G1 X99.258 Y75.285 E20.13482
G1 X100.554 Y75.064 E20.19604
G1 X101.172 Y74.978 E20.2251
G1 X102.327 Y74.853 E20.27919
G1 X103.099 Y74.795 E20.31524
G1 X104.134 Y74.748 E20.36348
G1 X105.033 Y74.736 E20.40535
G1 X106.115 Y74.756 E20.45574
G1 X106.785 Y74.788 E20.48697
G1 X107.726 Y74.857 E20.53091
G1 X108.656 Y74.957 E20.57446
G1 X109.546 Y75.079 E20.61629
G1 X110.462 Y75.232 E20.65954
G1 X111.364 Y75.412 E20.70237
G1 X112.094 Y75.578 E20.73723
G1 X113.226 Y75.875 E20.79172
G1 X114.034 Y76.115 E20.83097
G1 X115.14 Y76.484 E20.88526
G1 X115.851 Y76.747 E20.92056
G1 X116.684 Y77.082 E20.96237
G1 X117.512 Y77.444 E21.00444
G1 X118.565 Y77.946 E21.05876
G1 X119.21 Y78.28 E21.09259
G1 X120.143 Y78.799 E21.1423
G1 X120.748 Y79.157 E21.17503
G1 X121.774 Y79.811 E21.23169
G1 X122.499 Y80.308 E21.27262
G1 X123.25 Y80.858 E21.31596
G1 X124.006 Y81.448 E21.36062
G1 X124.661 Y81.991 E21.40023
G1 X125.316 Y82.57 E21.44094
G1 X126.142 Y83.346 E21.49371
G1 X126.588 Y83.792 E21.52308
G1 X127.53 Y84.793 E21.58709
G1 X127.973 Y85.3 E21.61844
G1 X128.614 Y86.071 E21.66513
G1 X129.086 Y86.674 E21.70078
G1 X129.793 Y87.64 E21.75653
G1 X130.105 Y88.096 E21.78225
G1 X130.729 Y89.064 E21.83588
G1 X131.049 Y89.593 E21.86467
G1 X131.624 Y90.612 E21.91915
G1 X131.976 Y91.281 E21.95435
G1 X132.468 Y92.297 E22.00692
G1 X132.785 Y93.009 E22.04321
G1 X133.277 Y94.218 E22.10399
G1 X133.485 Y94.777 E22.13176
G1 X133.905 Y96.032 E22.19338
G1 X134.054 Y96.527 E22.21745
G1 X134.406 Y97.846 E22.28102
G1 X134.562 Y98.526 E22.31351
G1 X134.752 Y99.463 E22.35803
G1 X134.882 Y100.206 E22.39315
G1 X135.06 Y101.489 E22.45346
G1 X135.136 Y102.219 E22.48764
G1 X135.208 Y103.161 E22.53163
G1 X135.249 Y104.069 E22.57395
G1 X135.263 Y105.198 E22.62653
G1 X135.249 Y105.982 E22.66304
